!!!!SEGMENT: pl-cz--iii-696--009_volckmer-augustin--missa-in-es-agnus-dei.krn
!!!cenid: 17xx:1206
!!!COM: Volckmer, Augustin
!!!COM-rismID: pe30020656
!!!CDT: 1755-~1820
!!!CNT:
!!!OPR: Missa in Es
!!!OTL: Agnus Dei
!!!OMV: 009
!!!PDT:
!!!AGN: Sacred; Mass
!!!SMS-siglum: PL-CZ
!!!SMS-shelfmark: III-696
!!!SMS-shelfwork: 001-009 M
!!!SMS-variant:
!!!SMS-altvar:
!!!NIFC-rismSourceID: 300001398
!!!NIFC-islandoraID: pl-cz:40545
!!!URL-pdf-islandora: https://repozytorium.nifc.pl/islandora/object/pl-cz%3A40545/datastream/PDF/view
!!!URL-scan:
!!!ONB-nifc: UWAGA: części Mszy: Kyrie, Gloria, Credo, Et incarnatus, Et resurrexit, Sanctus, Pleni sunt, Benedictus, Agnus Dei, Dona nobis
!!!AIN: 1 alto 1 bass 2 cor 1 fagot 2 oboe 1 organ 1 soprn 1 tenor 1 timpa 1 viola 2 violn
!!!key: E-
**kern	**fba	**dynam	**kern	**dynam	**kern	**dynam	**kern	**dynam	**kern	**text	**dynam	**kern	**text	**dynam	**kern	**text	**dynam	**kern	**text	**dynam	**kern	**dynam	**kern	**dynam	**kern	**dynam	**kern	**kern	**dynam	**kern	**dynam	**kern	**dynam
*	*	*	*group5	*	*group5	*	*group5	*	*group4	*	*	*group4	*	*	*group4	*	*	*group4	*	*	*	*	*group3	*	*group3	*	*group2	*group2	*	*group1	*	*group1	*
*part14	*	*part14	*part13	*part13	*part12	*part12	*part11	*part11	*part10	*part10	*part10	*part9	*part9	*part9	*part8	*part8	*part8	*part7	*part7	*part7	*part6	*part6	*part5	*part5	*part4	*part4	*part3	*part3	*part3	*part2	*part2	*part1	*part1
*staff15	*	*	*staff14	*	*staff13	*	*staff12	*	*staff11	*staff11	*	*staff10	*staff10	*	*staff9	*staff9	*	*staff8	*staff8	*	*staff7	*	*staff6	*	*staff5	*	*staff4	*staff3	*	*staff2	*	*staff1	*
*I"Organo.	*	*	*I"Viola: obg	*	*I"Violino. Secundo.	*	*I"Violino Primo.	*	*I"Baſſo.	*	*	*I"Tenore.	*	*	*I"Alto:	*	*	*I"Canto.	*	*	*I"Tympano do Es.B.	*	*I"Corno Secundo.	*	*I"Corno Primo.	*	*I"Fagotto Primo. e Secundo.	*I"Fagotto Primo. e Secundo.	*	*I"Huba . Secundo.	*	*I"Huba Primo	*
*I'org	*	*	*I'vla	*	*I'vl 2	*	*I'vl 1	*	*I'B	*	*	*I'T	*	*	*I'A	*	*	*I'S	*	*	*I'timp	*	*I'cor 2	*	*I'cor 1	*	*I'fag 1 e 2	*I'fag 1 e 2	*	*I'ob 2	*	*I'ob 1	*
*Iorgan	*	*	*Iviola	*	*Ivioln	*	*Ivioln	*	*Ibass	*	*	*Itenor	*	*	*Ialto	*	*	*Isoprn	*	*	*Itimpa	*	*Icor	*	*Icor	*	*Ifagot	*Ifagot	*	*Ioboe	*	*Ioboe	*
*ICklav	*	*	*ICstr	*	*ICstr	*	*ICstr	*	*ICvox	*	*	*ICvox	*	*	*ICvox	*	*	*ICvox	*	*	*ICidio	*	*ICbras	*	*ICbras	*	*ICww	*ICww	*	*ICww	*	*ICww	*
*IGcont	*	*	*	*	*	*	*	*	*	*	*	*	*	*	*	*	*	*	*	*	*	*	*	*	*	*	*	*	*	*	*	*	*
*clefF4	*	*	*clefC3	*	*clefG2	*	*clefG2	*	*clefF4	*	*	*clefC4	*	*	*clefC3	*	*	*clefC1	*	*	*clefF4	*	*clefG2	*	*clefG2	*	*clefF4	*clefF4	*	*clefG2	*	*clefG2	*
*	*	*	*	*	*	*	*	*	*	*	*	*	*	*	*	*	*	*	*	*	*	*	*ITrd5c9	*	*ITrd5c9	*	*	*	*	*	*	*	*
*k[b-e-a-]	*	*	*k[b-e-a-]	*	*k[b-e-a-]	*	*k[b-e-a-]	*	*k[b-e-a-]	*	*	*k[b-e-a-]	*	*	*k[b-e-a-]	*	*	*k[b-e-a-]	*	*	*k[b-e-a-]	*	*k[b-e-a-]	*	*k[b-e-a-]	*	*k[b-e-a-]	*k[b-e-a-]	*	*k[b-e-a-]	*	*k[b-e-a-]	*
*E-:	*	*	*E-:	*	*E-:	*	*E-:	*	*E-:	*	*	*E-:	*	*	*E-:	*	*	*E-:	*	*	*E-:	*	*E-:	*	*E-:	*	*E-:	*E-:	*	*E-:	*	*E-:	*
*M3/2	*	*	*M3/2	*	*M3/2	*	*M3/2	*	*M3/2	*	*	*M3/2	*	*	*M3/2	*	*	*M3/2	*	*	*M3/2	*	*M3/2	*	*M3/2	*	*M3/2	*M3/2	*	*M3/2	*	*M3/2	*
=1	=1	=1	=1	=1	=1	=1	=1	=1	=1	=1	=1	=1	=1	=1	=1	=1	=1	=1	=1	=1	=1	=1	=1	=1	=1	=1	=1	=1	=1	=1	=1	=1	=1
*2\right	*	*	*2\right	*	*all\right	*	*all\right	*	*	*	*	*	*	*	*	*	*	*	*	*	*	*	*	*	*	*	*2\right	*2\right	*	*	*	*	*
!LO:TX:b:t=unis	!	!	!	!	!	!	!	!	!	!	!	!	!	!	!	!	!	!	!	!	!	!	!	!	!	!	!	!	!	!	!	!	!
!LO:TX:b:rj:t=Solo:color=red	!	!	!	!	!	!	!LO:TX:b:t=unis:rj:color=red	!	!LO:TX:a:t=Tarde	!	!	!	!	!	!LO:TX:a:t=12	!	!	!LO:TX:a:t=12	!	!	!LO:TX:b:t=30.	!	!LO:TX:a:t=4	!	!LO:TX:a:t=4	!	!	!LO:TX:b:t=unis	!	!LO:TX:a:t=12	!	!LO:TX:a:t=12	!
!LO:TX:a:t=Tarde	!	!	!LO:TX:b:t=Tarde	!	!LO:TX:a:t=Tarde	!	!LO:TX:a:t=Tarde	!	!LO:TX:a:t=12	!	!	!LO:TX:a:t=Tarde	!	!	!LO:TX:a:t=Tarde.	!	!	!LO:TX:a:t=Tarde	!	!	!LO:TX:a:t=30.	!	!LO:TX:a:t=Tarde	!	!LO:TX:a:t=Tarde	!	!	!LO:TX:a:t=Tarde	!	!LO:TX:a:t=Tarde	!	!LO:TX:a:t=Tarde	!
2E-|\	.	.	2e-|\	.	2e-|/	.	2e-|/	.	00.r	.	.	00.r	.	.	00.r	.	.	00.r	.	.	1.r	.	00.r	.	00.r	.	2E-|\	2E-|\	.	00.r	.	00.r	.
!	!	!	!	!	!	!	!	!	!	!	!	!	!	!	!	!	!	!	!	!	!	!	!	!	!	!	!LO:SIC:v:s=2BB-|/	!LO:TX:t=P:problem:2xvertical stroke	!	!	!	!	!
2BB-|/	.	.	2B-|/	.	2B-|/	.	2B-|/	.	.	.	.	.	.	.	.	.	.	.	.	.	.	.	.	.	.	.	2D|/	2BB-|/	.	.	.	.	.
4r	.	.	4r	.	4r	.	4r	.	.	.	.	.	.	.	.	.	.	.	.	.	.	.	.	.	.	.	4r	4r	.	.	.	.	.
8G|\L	.	.	8g|\L	.	8g|/L	.	8g|/L	.	.	.	.	.	.	.	.	.	.	.	.	.	.	.	.	.	.	.	8G|\L	8G|\L	.	.	.	.	.
8E-|\J	.	.	8e-|\J	.	8e-|/J	.	8e-|/J	.	.	.	.	.	.	.	.	.	.	.	.	.	.	.	.	.	.	.	8E-|\J	8E-|\J	.	.	.	.	.
=2	=2	=2	=2	=2	=2	=2	=2	=2	=2	=2	=2	=2	=2	=2	=2	=2	=2	=2	=2	=2	=2	=2	=2	=2	=2	=2	=2	=2	=2	=2	=2	=2	=2
4.D|\	.	.	4.d|\	.	4.d|/	.	4.d|/	.	.	.	.	.	.	.	.	.	.	.	.	.	1.r	.	.	.	.	.	4.D\	4.D|\	.	.	.	.	.
8F|\	.	.	8f|\	.	8f|/	.	8f|/	.	.	.	.	.	.	.	.	.	.	.	.	.	.	.	.	.	.	.	8F\	8F|\	.	.	.	.	.
2A-|\	.	.	2a-|\	.	2a-|/	.	2a-|/	.	.	.	.	.	.	.	.	.	.	.	.	.	.	.	.	.	.	.	2A-\	2A-|\	.	.	.	.	.
2r	.	.	2r	.	2r	.	2r	.	.	.	.	.	.	.	.	.	.	.	.	.	.	.	.	.	.	.	2r	2r	.	.	.	.	.
=3	=3	=3	=3	=3	=3	=3	=3	=3	=3	=3	=3	=3	=3	=3	=3	=3	=3	=3	=3	=3	=3	=3	=3	=3	=3	=3	=3	=3	=3	=3	=3	=3	=3
2F|\	.	.	2f\	.	2f|/	.	2f|/	.	.	.	.	.	.	.	.	.	.	.	.	.	1.r	.	.	.	.	.	1.ryy	2F|\	.	.	.	.	.
2BB-|/	.	.	2B-/	.	2B-|/	.	2B-|/	.	.	.	.	.	.	.	.	.	.	.	.	.	.	.	.	.	.	.	.	2BB-|/	.	.	.	.	.
4r	.	.	4r	.	4r	.	4r	.	.	.	.	.	.	.	.	.	.	.	.	.	.	.	.	.	.	.	.	4r	.	.	.	.	.
8A-|\L	.	.	8a-|\L	.	8a-|/L	.	8a-|/L	.	.	.	.	.	.	.	.	.	.	.	.	.	.	.	.	.	.	.	.	8A-\L	.	.	.	.	.
8F|\J	.	.	8f|\J	.	8f|/J	.	8f|/J	.	.	.	.	.	.	.	.	.	.	.	.	.	.	.	.	.	.	.	.	8F\J	.	.	.	.	.
=4	=4	=4	=4	=4	=4	=4	=4	=4	=4	=4	=4	=4	=4	=4	=4	=4	=4	=4	=4	=4	=4	=4	=4	=4	=4	=4	=4	=4	=4	=4	=4	=4	=4
4.B-|\	.	.	4.b-\	.	4.b-|/	.	4.b-|\	.	.	.	.	.	.	.	.	.	.	.	.	.	1.r	.	.	.	.	.	1.ryy	4.B-\	.	.	.	.	.
8G|\	.	.	8g\	.	8g|/	.	8g|\	.	.	.	.	.	.	.	.	.	.	.	.	.	.	.	.	.	.	.	.	8G\	.	.	.	.	.
2E-|\	.	.	2e-\	.	2e-/	.	2e-|/	.	.	.	.	.	.	.	.	.	.	.	.	.	.	.	.	.	.	.	.	2E-\	.	.	.	.	.
2r	.	.	2r	.	2r	.	2r	.	.	.	.	.	.	.	.	.	.	.	.	.	.	.	.	.	.	.	.	2r	.	.	.	.	.
=5	=5	=5	=5	=5	=5	=5	=5	=5	=5	=5	=5	=5	=5	=5	=5	=5	=5	=5	=5	=5	=5	=5	=5	=5	=5	=5	=5	=5	=5	=5	=5	=5	=5
!LO:TX:b:t=Solo	!	!	!	!LO:DY:rj:color=red:t=piano	!	!LO:DY:a:color=red:t=piano	!	!LO:DY:color=red:t=piano	!	!	!	!LO:TX:b:t=dolce:color=red	!	!	!	!	!	!	!	!	!	!	!LO:TX:b:t=Dolce:color=red	!	!	!	!	!	!	!	!	!	!
2r	.	.	1G/	p	1e-/	p	1b-\	p	00.r	.	.	1B-\	A-	.	00.r	.	.	00.r	.	.	1.r	.	2r	.	2r	.	1.ryy	2r	.	00.r	.	00.r	.
*	*	*	*	*	*	*	*	*	*	*	*	*	*	*	*	*	*	*	*	*	*	*	*	*	*2\right	*	*	*	*	*	*	*	*
!	!	!	!	!	!	!	!	!	!	!	!	!	!	!	!	!	!	!	!	!	!	!	!	!	!LO:TX:b:t=Dolce:color=red	!	!	!	!	!	!	!	!
!	!	!LO:DY:color=red	!	!	!	!	!	!	!	!	!	!	!	!	!	!	!	!	!	!	!	!	!	!	!	!	!	!	!LO:DY:color=red	!	!	!	!
2G\	3 6	p	.	.	.	.	.	.	.	.	.	.	.	.	.	.	.	.	.	.	.	.	2G/	.	2e-\	.	.	2G\	p	.	.	.	.
*	*	*	*	*	*	*	*	*	*	*	*	*2\right	*	*	*	*	*	*	*	*	*	*	*	*	*	*	*	*	*	*	*	*	*
!	!	!	!	!	!	!	!LO:SIC:v:t=custos a	!	!	!	!	!LO:TX:a:i:t=Solo:color=grey	!	!	!	!	!	!	!	!	!	!	!	!	!LO:TX:a:t=Solo:color=grey	!	!	!	!	!	!	!	!
2F\	3 6	.	2B-/	.	2d/	.	2a-/	.	.	.	.	2A-\	-gnus	.	.	.	.	.	.	.	.	.	2B-/	.	2f\	.	.	2F\	.	.	.	.	.
!	!	!	!	!	!	!	!LO:LB:g=original	!	!	!	!	!	!	!	!	!	!	!	!	!	!	!	!	!	!	!	!	!	!	!	!	!	!
=6	=6	=6	=6	=6	=6	=6	=6	=6	=6	=6	=6	=6	=6	=6	=6	=6	=6	=6	=6	=6	=6	=6	=6	=6	=6	=6	=6	=6	=6	=6	=6	=6	=6
!	!	!	!	!	!LO:SIC:v:s=2e-/	!	!	!	!	!	!	!	!	!	!	!	!	!	!	!	!	!	!	!	!	!	!	!	!	!	!	!	!
2E-\	3	.	2B-/	.	2d/	.	(2a-/	.	.	.	.	2A-/	De-	.	.	.	.	.	.	.	1.r	.	1e-/	.	1g/	.	1.ryy	2E-\	.	.	.	.	.
2B-\	6	.	2B-/	.	2e-/	.	2g/)	.	.	.	.	2G/	.	.	.	.	.	.	.	.	.	.	.	.	.	.	.	2B-\	.	.	.	.	.
!	!	!	!	!	!LO:LB:g=original	!	!	!	!	!	!	!	!	!	!	!	!	!	!	!	!	!	!	!	!LO:TX:a:t=Corno:color=grey	!	!	!	!	!	!	!	!
2A-\	6	.	2B-/	.	4f/	.	4f/	.	.	.	.	(4F/	.	.	.	.	.	.	.	.	.	.	2B-/	.	2f\	.	.	2A-\	.	.	.	.	.
.	.	.	.	.	4d/	.	4d/	.	.	.	.	4D/)	-i	.	.	.	.	.	.	.	.	.	.	.	.	.	.	.	.	.	.	.	.
!LO:LB:g=original	!	!	!	!	!	!	!	!	!	!	!	!	!	!	!	!	!	!	!	!	!	!	!	!	!	!	!LO:LB:g=original	!LO:LB:g=original	!	!	!	!	!
=7	=7	=7	=7	=7	=7	=7	=7	=7	=7	=7	=7	=7	=7	=7	=7	=7	=7	=7	=7	=7	=7	=7	=7	=7	=7	=7	=7	=7	=7	=7	=7	=7	=7
2G\	6	.	2B-/	.	2e-/	.	2e-/	.	.	.	.	2E-/	qui	.	.	.	.	.	.	.	1.r	.	2G/	.	2e-\	.	1.ryy	2G\	.	.	.	.	.
2D\	3	.	2B-/	.	(4d/	.	(4f/	.	.	.	.	(4F/	tol-	.	.	.	.	.	.	.	.	.	2B-/	.	2f\	.	.	2D\	.	.	.	.	.
.	.	.	.	.	4f/)	.	4a-/)	.	.	.	.	4A-/	.	.	.	.	.	.	.	.	.	.	.	.	.	.	.	.	.	.	.	.	.
!	!	!	!LO:LB:g=original	!	!	!	!	!	!	!	!	!	!	!	!	!	!	!	!	!	!	!	!	!	!	!	!	!	!	!	!	!	!
2E-\	.	.	2B-/	.	(4e-/	.	(4g/	.	.	.	.	4G/	.	.	.	.	.	.	.	.	.	.	4e-\	.	4g\	.	.	2E-\	.	.	.	.	.
.	.	.	.	.	4g/)	.	4b-/)	.	.	.	.	4B-/)	.	.	.	.	.	.	.	.	.	.	4g\	.	4b-\	.	.	.	.	.	.	.	.
=8	=8	=8	=8	=8	=8	=8	=8	=8	=8	=8	=8	=8	=8	=8	=8	=8	=8	=8	=8	=8	=8	=8	=8	=8	=8	=8	=8	=8	=8	=8	=8	=8	=8
*	*	*	*	*	*	*	*2\right	*	*	*	*	*	*	*	*	*	*	*	*	*	*	*	*2\right	*	*	*	*	*	*	*	*	*	*
2B-\	4	.	1B-/	.	2g/	.	(2b-\	.	.	.	.	2B-/	.	.	.	.	.	.	.	.	1.r	.	2g\	.	2b-\	.	1.ryy	2B-\	.	.	.	.	.
2BB-/	3	.	.	.	2f/	.	2a-\	.	.	.	.	2A-T/	.	.	.	.	.	.	.	.	.	.	2f\	.	2a-\	.	.	2BB-/	.	.	.	.	.
2E-\	.	.	2B-/	.	2e-/	.	2g\)	.	.	.	.	2G/	-lis	.	.	.	.	.	.	.	.	.	2e-\	.	2g\	.	.	2E-\	.	.	.	.	.
=9	=9	=9	=9	=9	=9	=9	=9	=9	=9	=9	=9	=9	=9	=9	=9	=9	=9	=9	=9	=9	=9	=9	=9	=9	=9	=9	=9	=9	=9	=9	=9	=9	=9
!	!	!	!	!	!	!	!	!	!	!	!	!	!	!	!	!	!	!	!	!	!	!	!	!LO:DY:rj:color=red	!	!	!	!	!	!	!	!	!
2A-\	.	.	2e-\	.	2a-/	.	2cc\	.	00.r	.	.	2c\	pec-	.	00.r	.	.	00.r	.	.	1.r	.	2r	mf	2r	.	1.ryy	2A-\	.	00.r	.	00.r	.
.	.	.	.	.	.	.	.	.	.	.	.	16qqd/	.	.	.	.	.	.	.	.	.	.	.	.	.	.	.	.	.	.	.	.	.
!	!	!	!	!	!	!	!	!	!	!	!	!	!	!	!	!	!	!	!	!	!	!	!	!	!	!LO:DY:rj:color=red:t=mf&colon;	!	!	!	!	!	!	!
2r	.	.	2r	.	2r	.	2ee-\	.	.	.	.	2e-\	.	.	.	.	.	.	.	.	.	.	2E-/	.	2e-\	mf	.	2r	.	.	.	.	.
2A-\	.	.	2e-\	.	2a-/	.	2cc\	.	.	.	.	2c\	.	.	.	.	.	.	.	.	.	.	2r	.	2r	.	.	2A-\	.	.	.	.	.
=10	=10	=10	=10	=10	=10	=10	=10	=10	=10	=10	=10	=10	=10	=10	=10	=10	=10	=10	=10	=10	=10	=10	=10	=10	=10	=10	=10	=10	=10	=10	=10	=10	=10
2G\	.	.	2e-\	.	2g/	.	2b-\	.	.	.	.	2B-\	-ca-	.	.	.	.	.	.	.	1.r	.	2r	.	2r	.	1.ryy	2G\	.	.	.	.	.
.	.	.	.	.	.	.	8qqdd/	.	.	.	.	16qqd/	.	.	.	.	.	.	.	.	.	.	.	.	.	.	.	.	.	.	.	.	.
2r	.	.	2r	.	2r	.	2ee-\	.	.	.	.	2e-\	.	.	.	.	.	.	.	.	.	.	2E-/	.	2e-\	.	.	2r	.	.	.	.	.
2G\	.	.	2e-\	.	2g/	.	2b-\	.	.	.	.	2B-\	-ta	.	.	.	.	.	.	.	.	.	2r	.	2r	.	.	2G\	.	.	.	.	.
=11	=11	=11	=11	=11	=11	=11	=11	=11	=11	=11	=11	=11	=11	=11	=11	=11	=11	=11	=11	=11	=11	=11	=11	=11	=11	=11	=11	=11	=11	=11	=11	=11	=11
2F\	.	.	2d\	.	2d/	.	(4b-/	.	.	.	.	(4B-\	pec-	.	.	.	.	.	.	.	1.r	.	2r	.	2r	.	1.ryy	2F\	.	.	.	.	.
.	.	.	.	.	.	.	4an/	.	.	.	.	4An\)	.	.	.	.	.	.	.	.	.	.	.	.	.	.	.	.	.	.	.	.	.
!	!	!	!	!	!	!	!	!	!	!	!	!	!	!	!	!	!	!	!	!	!	!	!	!LO:DY:rj:color=red	!	!LO:DY:color=red	!	!	!	!	!	!	!
2D\	.	.	2B-/	.	2f/	.	2a-X/	.	.	.	.	2A-X/	-ca-	.	.	.	.	.	.	.	.	.	2f\	p	2a-\	p	.	2D\	.	.	.	.	.
2E-\	.	.	2B-/	.	2e-/	.	2g/)	.	.	.	.	2G/	-ta	.	.	.	.	.	.	.	.	.	2e-\	.	2g\	.	.	2E-\	.	.	.	.	.
!	!	!	!	!	!	!	!	!	!	!	!	!LO:LB:g=original	!	!	!	!	!	!	!	!	!	!	!	!	!	!	!	!	!	!	!	!	!
=12	=12	=12	=12	=12	=12	=12	=12	=12	=12	=12	=12	=12	=12	=12	=12	=12	=12	=12	=12	=12	=12	=12	=12	=12	=12	=12	=12	=12	=12	=12	=12	=12	=12
2B-\	.	.	1B-/	.	1e-/	.	1g/t	.	.	.	.	1G/t	mun-	.	.	.	.	.	.	.	1.r	.	1e-/	.	1g/	.	1.ryy	2B-\	.	.	.	.	.
2F\	.	.	.	.	.	.	.	.	.	.	.	.	.	.	.	.	.	.	.	.	.	.	.	.	.	.	.	2F\	.	.	.	.	.
.	.	.	.	.	.	.	(16qqf/LL	.	.	.	.	16qqF/LL	.	.	.	.	.	.	.	.	.	.	.	.	.	.	.	.	.	.	.	.	.
.	.	.	.	.	.	.	16qqg/JJ	.	.	.	.	16qqG/JJ	.	.	.	.	.	.	.	.	.	.	.	.	.	.	.	.	.	.	.	.	.
2BB-/	.	.	2B-/	.	2d/	.	2f/)	.	.	.	.	2F/	-di	.	.	.	.	.	.	.	.	.	2B-/	.	2f\	.	.	2BB-/	.	.	.	.	.
!	!	!	!	!	!	!	!LO:LB:g=original	!	!	!	!	!	!	!	!	!	!	!	!	!	!	!	!	!	!LO:LB:g=original	!	!	!	!	!	!	!	!
=13	=13	=13	=13	=13	=13	=13	=13	=13	=13	=13	=13	=13	=13	=13	=13	=13	=13	=13	=13	=13	=13	=13	=13	=13	=13	=13	=13	=13	=13	=13	=13	=13	=13
*	*	*	*	*	*	*	*	*	*	*	*	*	*	*	*2\right	*	*below	*2\right	*	*below	*	*	*	*	*	*	*	*	*	*2\right	*	*2\right	*
!	!	!LO:DY:rj:color=red:t=forto	!	!LO:DY:color=red:t=fort	!	!LO:DY:a:color=red:t=forto	!	!	!	!	!LO:DY:aLO:DY:color=red:t=fort	!	!	!LO:DY:a:color=red:t=fort	!	!	!LO:DY:color=red	!	!	!LO:DY:rj:color=red:t=fort	!	!	!LO:TX:t=P:problem:ucięta strona	!	!	!LO:DY:color=red:t=fort	!	!	!LO:DY:color=red:t=fort	!	!LO:DY:color=red	!	!LO:DY:color=red:t=fort
2BB-/	5_ 3_	f	2f\	f	2d/	f	4r	.	2BB-/	Mi-	f	2B-\	Mi-	f	2f\	Mi-	f	2dd\	Mi-	f	1.r	.	1r	.	2f\	f	2BB-/	2F\	f	2b-\	f	2dd\	f
!	!	!	!	!	!	!	!	!LO:DY:rj:color=red:t=forto	!	!	!	!	!	!	!	!	!	!	!	!	!	!	!	!	!	!	!	!	!	!	!	!	!
.	.	.	.	.	.	.	(8ff\L	f	.	.	.	.	.	.	.	.	.	.	.	.	.	.	.	.	.	.	.	.	.	.	.	.	.
.	.	.	.	.	.	.	8dd\J)	.	.	.	.	.	.	.	.	.	.	.	.	.	.	.	.	.	.	.	.	.	.	.	.	.	.
2BB-/	x x	.	2f\	.	2d/	.	(8dd\L	.	2BB-/	-se-	.	2B-\	-se-	.	2f\	-se-	.	2dd\	-se-	.	.	.	.	.	2r	.	2BB-/	2F\	.	2b-\	.	2dd\	.
.	.	.	.	.	.	.	8b-\)	.	.	.	.	.	.	.	.	.	.	.	.	.	.	.	.	.	.	.	.	.	.	.	.	.	.
.	.	.	.	.	.	.	(8b-\	.	.	.	.	.	.	.	.	.	.	.	.	.	.	.	.	.	.	.	.	.	.	.	.	.	.
.	.	.	.	.	.	.	8f\J)	.	.	.	.	.	.	.	.	.	.	.	.	.	.	.	.	.	.	.	.	.	.	.	.	.	.
!	!	!	!	!	!	!	!	!	!	!	!	!	!	!	!	!	!	!	!	!	!	!	!LO:LB:g=original	!	!	!	!	!	!	!	!	!	!
2r	.	.	2r	.	(8f/L	.	(8f/L	.	2r	.	.	2r	.	.	2r	.	.	2r	.	.	.	.	2B-/	.	2f\	.	2r	2r	.	2r	.	2r	.
.	.	.	.	.	8d/)	.	8d/)	.	.	.	.	.	.	.	.	.	.	.	.	.	.	.	.	.	.	.	.	.	.	.	.	.	.
.	.	.	.	.	(8d/	.	(8d/	.	.	.	.	.	.	.	.	.	.	.	.	.	.	.	.	.	.	.	.	.	.	.	.	.	.
.	.	.	.	.	8B-/J)	.	8B-/J)	.	.	.	.	.	.	.	.	.	.	.	.	.	.	.	.	.	.	.	.	.	.	.	.	.	.
=14	=14	=14	=14	=14	=14	=14	=14	=14	=14	=14	=14	=14	=14	=14	=14	=14	=14	=14	=14	=14	=14	=14	=14	=14	=14	=14	=14	=14	=14	=14	=14	=14	=14
!LO:TX:b:rj:t=Tutti:color=red	!	!LO:DY:color=red:t=forto	!	!	!	!	!	!	!	!	!	!	!	!	!	!	!	!	!	!	!	!	!	!	!	!	!	!	!	!	!	!	!
8AAn/L	5 3	f	4e-\	.	4c/	.	(8e-/L	.	1F\	-re-	.	1c\	-re-	.	1an\	-re-	.	1ee-\	-re-	.	1.r	.	2f\	.	2f\	.	(8AAn/L	(8An\L	.	1cc\	.	1ee-\	.
8FF/	.	.	.	.	.	.	8f/)	.	.	.	.	.	.	.	.	.	.	.	.	.	.	.	.	.	.	.	8FF/)	8F\)	.	.	.	.	.
8AA/	.	.	4e-\	.	4c/	.	8f'/	.	.	.	.	.	.	.	.	.	.	.	.	.	.	.	.	.	.	.	8AA/	(8A\	.	.	.	.	.
8FF/J	.	.	.	.	.	.	8f'/J	.	.	.	.	.	.	.	.	.	.	.	.	.	.	.	.	.	.	.	8FF/J	8F\J)	.	.	.	.	.
8AA/L	.	.	4e-\	.	4c/	.	(8e-/L	.	.	.	.	.	.	.	.	.	.	.	.	.	.	.	2f\	.	2f\	.	(8AA/L	(8A\L	.	.	.	.	.
8FF/	.	.	.	.	.	.	8f/)	.	.	.	.	.	.	.	.	.	.	.	.	.	.	.	.	.	.	.	8FF/	8F\	.	.	.	.	.
8AA/	.	.	4e-\	.	4c/	.	8f'/	.	.	.	.	.	.	.	.	.	.	.	.	.	.	.	.	.	.	.	8AA/	8A\)	.	.	.	.	.
8FF/J	.	.	.	.	.	.	8f'/J	.	.	.	.	.	.	.	.	.	.	.	.	.	.	.	.	.	.	.	8FF/J)	8F\J	.	.	.	.	.
*	*	*	*	*	*	*	*	*	*2\right	*	*	*	*	*	*	*	*	*	*	*	*	*	*	*	*	*	*	*	*	*	*	*	*
8AA/L	.	.	4e-\	.	4c/	.	(8e-/L	.	2F\	-re	.	2c\	-re	.	2a\	-re	.	2ee-\	-re	.	.	.	2r	.	2r	.	(8AA/L	(8A\L	.	2cc\	.	2ee-\	.
8FF/	.	.	.	.	.	.	8f/)	.	.	.	.	.	.	.	.	.	.	.	.	.	.	.	.	.	.	.	8FF/	8F\	.	.	.	.	.
8AA/	.	.	4e-\	.	4c/	.	8f'/	.	.	.	.	.	.	.	.	.	.	.	.	.	.	.	.	.	.	.	8AA/	8A\)	.	.	.	.	.
8FF/J	.	.	.	.	.	.	8f'/J	.	.	.	.	.	.	.	.	.	.	.	.	.	.	.	.	.	.	.	8FF/J)	8F\J	.	.	.	.	.
!LO:LB:g=original	!	!	!	!	!LO:PB:g=original	!	!	!	!	!	!	!	!	!	!	!	!	!	!	!	!	!	!	!	!	!	!	!	!	!	!	!	!
=15	=15	=15	=15	=15	=15	=15	=15	=15	=15	=15	=15	=15	=15	=15	=15	=15	=15	=15	=15	=15	=15	=15	=15	=15	=15	=15	=15	=15	=15	=15	=15	=15	=15
!	!	!	!	!	!	!	!LO:TX:t=P:problem:mixed beam	!	!	!	!	!	!	!	!	!	!	!	!	!	!	!	!	!	!	!	!	!	!	!	!	!	!
2BB-/	3	.	2f\	.	2d/	.	(>8d/L	.	2BB-/	Mi-	.	2B-\	Mi-	.	2f\	Mi-	.	2dd\	Mi-	.	1.r	.	2B-/	.	2f\	.	2BB-/	2F\	.	2b-\	.	2dd\	.
.	.	.	.	.	.	.	8ff\	.	.	.	.	.	.	.	.	.	.	.	.	.	.	.	.	.	.	.	.	.	.	.	.	.	.
.	.	.	.	.	.	.	8dd\	.	.	.	.	.	.	.	.	.	.	.	.	.	.	.	.	.	.	.	.	.	.	.	.	.	.
.	.	.	.	.	.	.	8b-\J)	.	.	.	.	.	.	.	.	.	.	.	.	.	.	.	.	.	.	.	.	.	.	.	.	.	.
!	!	!	!	!	!	!	!	!	!	!	!	!	!	!	!	!	!	!	!	!	!	!	!	!	!	!	!	!LO:TX:t=P:problem:porwana strona	!	!	!	!	!
2B-\	.	.	2f\	.	2d/	.	(8b-/L	.	2BB-/	-se-	.	2B-\	-se-	.	2f\	-se-	.	2dd\	-se-	.	.	.	2r	.	2r	.	2BB-/	2ryy	.	2b-\	.	2dd\	.
.	.	.	.	.	.	.	8f/)	.	.	.	.	.	.	.	.	.	.	.	.	.	.	.	.	.	.	.	.	.	.	.	.	.	.
.	.	.	.	.	.	.	(8f/	.	.	.	.	.	.	.	.	.	.	.	.	.	.	.	.	.	.	.	.	.	.	.	.	.	.
.	.	.	.	.	.	.	8d/J)	.	.	.	.	.	.	.	.	.	.	.	.	.	.	.	.	.	.	.	.	.	.	.	.	.	.
!	!	!	!	!	!	!	!	!	!	!	!	!	!	!	!	!	!	!	!	!	!	!	!	!	!	!	!LO:LB:g=original	!LO:LB:g=original	!	!	!	!	!
2r	.	.	2r	.	8f/L	.	(8f/L	.	2r	.	.	2r	.	.	2r	.	.	2r	.	.	.	.	2B-/	.	2f\	.	2r	2r	.	2r	.	2r	.
.	.	.	.	.	8d/	.	8d/)	.	.	.	.	.	.	.	.	.	.	.	.	.	.	.	.	.	.	.	.	.	.	.	.	.	.
.	.	.	.	.	8f/	.	(8f/	.	.	.	.	.	.	.	.	.	.	.	.	.	.	.	.	.	.	.	.	.	.	.	.	.	.
.	.	.	.	.	8B-/J	.	8B-/J)	.	.	.	.	.	.	.	.	.	.	.	.	.	.	.	.	.	.	.	.	.	.	.	.	.	.
=16	=16	=16	=16	=16	=16	=16	=16	=16	=16	=16	=16	=16	=16	=16	=16	=16	=16	=16	=16	=16	=16	=16	=16	=16	=16	=16	=16	=16	=16	=16	=16	=16	=16
8AAn/L	5 3	.	4e-\	.	4c/	.	(8e-/L	.	1F\	-re-	.	1c\	-re-	.	1an\	-re-	.	2ee-\	-re-	.	1.r	.	2f\	.	2f\	.	(8AAn/L	(8An\L	.	1.cc\	.	1.ee-\	.
8FF/	.	.	.	.	.	.	8f/)	.	.	.	.	.	.	.	.	.	.	.	.	.	.	.	.	.	.	.	8FF/	8F\	.	.	.	.	.
8AA/	.	.	4e-\	.	4c/	.	8f'/	.	.	.	.	.	.	.	.	.	.	.	.	.	.	.	.	.	.	.	8AA/)	8A\	.	.	.	.	.
8FF/J	.	.	.	.	.	.	8f'/J	.	.	.	.	.	.	.	.	.	.	.	.	.	.	.	.	.	.	.	8FF/J	8F\J)	.	.	.	.	.
8AA/L	.	.	4e-\	.	4c/	.	(8e-/L	.	.	.	.	.	.	.	.	.	.	1ee-\	-re	.	.	.	2f\	.	2f\	.	(8AA/L	(8A\L	.	.	.	.	.
8FF/	.	.	.	.	.	.	8f/)	.	.	.	.	.	.	.	.	.	.	.	.	.	.	.	.	.	.	.	8FF/	8F\	.	.	.	.	.
8AA/	.	.	4e-\	.	4c/	.	8f'/	.	.	.	.	.	.	.	.	.	.	.	.	.	.	.	.	.	.	.	8AA/)	8A\	.	.	.	.	.
8FF/J	.	.	.	.	.	.	8f'/J	.	.	.	.	.	.	.	.	.	.	.	.	.	.	.	.	.	.	.	8FF/J	8F\J)	.	.	.	.	.
8AA/L	.	.	4e-\	.	4c/	.	(8e-/L	.	2F\	-re	.	2c\	-re	.	2a\	-re	.	.	.	.	.	.	2r	.	2r	.	8AA/L	(8A\L	.	.	.	.	.
8FF/	.	.	.	.	.	.	8f/)	.	.	.	.	.	.	.	.	.	.	.	.	.	.	.	.	.	.	.	8FF/	8F\	.	.	.	.	.
8AA/	.	.	4e-\	.	4c/	.	8f'/	.	.	.	.	.	.	.	.	.	.	.	.	.	.	.	.	.	.	.	8AA/	8A\	.	.	.	.	.
8FF/J	.	.	.	.	.	.	8f'/J	.	.	.	.	.	.	.	.	.	.	.	.	.	.	.	.	.	.	.	8FF/J	8F\J)	.	.	.	.	.
!	!	!	!LO:LB:g=original	!	!	!	!	!	!	!	!	!	!	!	!	!	!	!	!	!	!	!	!	!	!	!	!	!	!	!	!	!	!
=17	=17	=17	=17	=17	=17	=17	=17	=17	=17	=17	=17	=17	=17	=17	=17	=17	=17	=17	=17	=17	=17	=17	=17	=17	=17	=17	=17	=17	=17	=17	=17	=17	=17
*	*	*	*	*	*	*	*	*	*	*	*	*	*	*	*	*ij	*	*	*	*	*	*	*	*	*	*	*	*	*	*	*	*	*
!	!	!	!	!	!	!	!LO:TX:t=P:problem:mixed beam	!	!	!	!	!	!	!	!	!	!	!	!	!	!	!	!	!	!	!	!	!	!	!	!	!	!
2BB-/	.	.	4f\	.	4d/	.	(8d/L	.	2BB-/	Mi-	.	(2B-\	Mi-	.	1b-\	Mi-	.	2dd\	Mi-	.	1.r	.	8r	.	8r	.	2BB-/	2D\	.	2b-\	.	2dd\	.
.	.	.	.	.	.	.	8b-\)	.	.	.	.	.	.	.	.	.	.	.	.	.	.	.	8B-/L	.	8B-/L	.	.	.	.	.	.	.	.
.	.	.	4B-/	.	4d/	.	8b-'\	.	.	.	.	.	.	.	.	.	.	.	.	.	.	.	8B-/	.	8B-/	.	.	.	.	.	.	.	.
.	.	.	.	.	.	.	8b-'\J	.	.	.	.	.	.	.	.	.	.	.	.	.	.	.	8B-/J	.	8B-/J	.	.	.	.	.	.	.	.
!	!	!	!	!	!	!	!LO:LB:g=original	!	!	!	!	!	!	!	!	!	!	!	!	!	!	!	!	!	!	!	!	!	!	!	!	!	!
2C/	.	.	4c/	.	4e-/	.	(8e-/L	.	2r	.	.	2c\)	.	.	.	.	.	2ee-\	-se-	.	.	.	8r	.	8r	.	2r	2r	.	2cc\	.	2ee-\	.
.	.	.	.	.	.	.	8b-/)	.	.	.	.	.	.	.	.	.	.	.	.	.	.	.	8B-/L	.	8B-/L	.	.	.	.	.	.	.	.
.	.	.	4c/	.	4e-/	.	8b-'/	.	.	.	.	.	.	.	.	.	.	.	.	.	.	.	8B-/	.	8B-/	.	.	.	.	.	.	.	.
.	.	.	.	.	.	.	8b-'/J	.	.	.	.	.	.	.	.	.	.	.	.	.	.	.	8B-/J	.	8B-/J	.	.	.	.	.	.	.	.
2D\	.	.	4d/	.	4f/	.	(8f/L	.	2BB-/	-se-	.	2d\	-se-	.	2b-\	-se-	.	2ff\	-re	.	.	.	8r	.	8r	.	2BB-/	2D\	.	2dd\	.	2ff\	.
.	.	.	.	.	.	.	8b-/)	.	.	.	.	.	.	.	.	.	.	.	.	.	.	.	8B-/L	.	8B-/L	.	.	.	.	.	.	.	.
.	.	.	4d/	.	4f/	.	8b-'/	.	.	.	.	.	.	.	.	.	.	.	.	.	.	.	8B-/	.	8B-/	.	.	.	.	.	.	.	.
.	.	.	.	.	.	.	8b-'/J	.	.	.	.	.	.	.	.	.	.	.	.	.	.	.	8B-/J	.	8B-/J	.	.	.	.	.	.	.	.
=18	=18	=18	=18	=18	=18	=18	=18	=18	=18	=18	=18	=18	=18	=18	=18	=18	=18	=18	=18	=18	=18	=18	=18	=18	=18	=18	=18	=18	=18	=18	=18	=18	=18
!	!	!	!	!	!LO:TX:t=P:problem:mixed beam	!	!LO:TX:t=P:problem:mixed beam	!	!	!	!	!	!	!	!	!	!	!LO:TX:t=P:problem:brak ćwierćnuty, strona była porwana + sklejona	!	!	!	!	!	!	!	!	!	!	!	!	!	!	!
2E-\	.	.	4g\	.	8e-/L	.	8g/L	.	4E-\	-re-	.	4e-\	-re-	.	4b-\	-re-	.	4ryy	.	.	1.r	.	4E-/	.	4B-/	.	2E-\	2E-\	.	4ee-\	.	4gg\	.
.	.	.	.	.	8ee-\	.	8gg\	.	.	.	.	.	.	.	.	.	.	.	.	.	.	.	.	.	.	.	.	.	.	.	.	.	.
.	.	.	4g\	.	8dd\	.	8ff\	.	4G\	-re	.	8d\L	-re	.	4b-\	-re	.	8ff\L	no-	.	.	.	4r	.	4r	.	.	.	.	8dd\L	.	8ff\L	.
.	.	.	.	.	8cc\J	.	8ee-\J	.	.	.	.	8c\J	.	.	.	.	.	8ee-\J	.	.	.	.	.	.	.	.	.	.	.	8cc\J	.	8ee-\J	.
*	*	*	*	*	*	*	*	*	*	*	*	*	*	*	*	*Xij	*	*	*	*	*	*	*	*	*	*	*	*	*	*	*	*	*
2F\	4	.	4f\	.	4b-\	.	4dd\	.	2F\	no-	.	4B-\	no-	.	(4f\	no-	.	(4dd\	.	.	.	.	2r	.	2r	.	2F\	2F\	.	4b-\	.	4dd\	.
.	.	.	4f\	.	4e-/	.	4cc\	.	.	.	.	4e-\	.	.	4e-\	.	.	4cc\	.	.	.	.	.	.	.	.	.	.	.	4e-/	.	4cc\	.
2FF/	n	.	4f\	.	4d/	.	4b-\	.	2F\	-bis	.	2f\	-bis	.	4d\	-bis	.	4b-\)	.	.	.	.	2r	.	2r	.	2FF/	2FF/	.	4d/	.	4b-/	.
.	.	.	4f\	.	4c/	.	4an\	.	.	.	.	.	.	.	4c\)	.	.	4an\	-bis	.	.	.	.	.	.	.	.	.	.	4e-/	.	4an/	.
!	!	!	!	!	!	!	!	!	!	!	!	!	!	!	!	!	!	!LO:LB:g=original	!	!	!	!	!	!	!	!	!	!	!	!	!	!	!
=19	=19	=19	=19	=19	=19	=19	=19	=19	=19	=19	=19	=19	=19	=19	=19	=19	=19	=19	=19	=19	=19	=19	=19	=19	=19	=19	=19	=19	=19	=19	=19	=19	=19
!LO:TX:a:t=1	!	!	!	!	!	!	!	!	!LO:TX:a:t=1	!	!	!LO:TX:a:t=1	!	!	!LO:TX:a:t=1	!	!	!LO:TX:a:t=1	!	!	!	!	!	!	!	!	!	!	!	!	!	!	!
1.r	.	.	8B-/L	.	8d/L	.	(8b-\L	.	1.r	.	.	1.r	.	.	1.r	.	.	1.r	.	.	1.r	.	2BB-/	.	2B-/	.	1.r	1.r	.	2b-\	.	2dd\	.
.	.	.	8B-/J	.	8d/J	.	8bb-\)	.	.	.	.	.	.	.	.	.	.	.	.	.	.	.	.	.	.	.	.	.	.	.	.	.	.
.	.	.	4B-/	.	4d/	.	8b-'\	.	.	.	.	.	.	.	.	.	.	.	.	.	.	.	.	.	.	.	.	.	.	.	.	.	.
.	.	.	.	.	.	.	8b-'\J	.	.	.	.	.	.	.	.	.	.	.	.	.	.	.	.	.	.	.	.	.	.	.	.	.	.
.	.	.	8c/L	.	8e-/L	.	(8b-\L	.	.	.	.	.	.	.	.	.	.	.	.	.	.	.	2r	.	2r	.	.	.	.	2cc\	.	2ee-\	.
.	.	.	8c/J	.	8e-/J	.	8bb-\)	.	.	.	.	.	.	.	.	.	.	.	.	.	.	.	.	.	.	.	.	.	.	.	.	.	.
.	.	.	4c/	.	4e-/	.	8b-'\	.	.	.	.	.	.	.	.	.	.	.	.	.	.	.	.	.	.	.	.	.	.	.	.	.	.
.	.	.	.	.	.	.	8b-'\J	.	.	.	.	.	.	.	.	.	.	.	.	.	.	.	.	.	.	.	.	.	.	.	.	.	.
.	.	.	8d/L	.	8f/L	.	(8b-\L	.	.	.	.	.	.	.	.	.	.	.	.	.	.	.	2BB-/	.	2B-/	.	.	.	.	2dd\	.	2ff\	.
.	.	.	8d/J	.	8f/J	.	8bb-\)	.	.	.	.	.	.	.	.	.	.	.	.	.	.	.	.	.	.	.	.	.	.	.	.	.	.
.	.	.	4d/	.	4f/	.	8b-'\	.	.	.	.	.	.	.	.	.	.	.	.	.	.	.	.	.	.	.	.	.	.	.	.	.	.
.	.	.	.	.	.	.	8b-'\J	.	.	.	.	.	.	.	.	.	.	.	.	.	.	.	.	.	.	.	.	.	.	.	.	.	.
!	!	!	!	!	!	!	!	!	!	!	!	!	!	!	!LO:LB:g=original	!	!	!	!	!	!	!	!	!	!	!	!	!	!	!	!	!	!
=20	=20	=20	=20	=20	=20	=20	=20	=20	=20	=20	=20	=20	=20	=20	=20	=20	=20	=20	=20	=20	=20	=20	=20	=20	=20	=20	=20	=20	=20	=20	=20	=20	=20
!	!	!	!	!	!LO:TX:t=P:problem:mixed beam	!	!	!	!	!	!	!	!	!	!	!	!	!	!	!	!	!	!	!	!	!	!	!	!	!	!	!	!
4E-\	.	.	8g\L	.	8g/L	.	8bb-|\L	.	8r	.	.	8r	.	.	8r	.	.	8r	.	.	1.r	.	2E-/	.	2B-/	.	4E-\	4E-\	.	4ee-\	.	4gg\	.
.	.	.	8g\J	.	(8ee-\	.	(8gg\	.	4E-\	Mi-	.	8e-\L	Mi-	.	4b-\	Mi-	.	8gg\L	Mi-	.	.	.	.	.	.	.	.	.	.	.	.	.	.
4E-\	.	.	4g\	.	8dd\	.	8ff\	.	.	.	.	8d\J	.	.	.	.	.	8ff\J	.	.	.	.	.	.	.	.	4C/	4C\	.	8dd\L	.	8ff\L	.
.	.	.	.	.	8cc\J)	.	8ee-\J)	.	8E-\	-se-	.	8c\	-se-	.	8b-\	-se-	.	8ee-\	-se-	.	.	.	.	.	.	.	.	.	.	8cc\J	.	8ee-\J	.
!	!	!	!	!	!	!	!	!	!LO:LB:g=original	!	!	!	!	!	!	!	!	!	!	!	!	!	!	!	!	!	!	!	!	!	!	!LO:LB:g=original	!
4F\	4	.	4f\	.	4b-\	.	4dd\	.	4F\	-re-	.	4B-\	-re-	.	4f\	-re-	.	4dd\	-re-	.	.	.	2r	.	2r	.	4F\	4F\	.	4b-\	.	4dd\	.
4F\	.	.	4f\	.	4e-/	.	4cc\	.	4F\	-re	.	4e-\	-re	.	4e-\	-re	.	4cc\	-re	.	.	.	.	.	.	.	4E-\	4E-\	.	4e-/	.	4cc\	.
!	!	!	!	!	!	!	!	!	!	!	!	!LO:TX:t=P:problem:brak uwzględnionej półnuty	!	!	!	!	!	!	!	!	!	!	!	!	!LO:TX:b:t=Dolce:color=red	!	!	!	!	!	!	!	!
4FF/	n	.	4f\	.	4d/	.	4b-\	.	2F\	no-	.	2ryy	.	.	(4d\	no-	.	(>4b-\	no-	.	.	.	2f\	.	2f\	.	4F\	4F\	.	4f/	.	4b-/	.
4FF/	.	.	4f\	.	4c/	.	4an\	.	.	.	.	.	.	.	4c\)	.	.	4an\)	.	.	.	.	.	.	.	.	4FF/	4FF/	.	4e-/	.	4an/	.
!	!	!	!	!	!LO:LB:g=original	!	!	!	!	!	!	!	!	!	!	!	!	!	!	!	!	!	!	!	!	!	!	!	!	!LO:LB:g=original	!	!	!
=21	=21	=21	=21	=21	=21	=21	=21	=21	=21	=21	=21	=21	=21	=21	=21	=21	=21	=21	=21	=21	=21	=21	=21	=21	=21	=21	=21	=21	=21	=21	=21	=21	=21
2BB-/	.	.	2f\	.	2d/	.	2b-\	.	2BB-/	-bis	.	1f\	no-	.	2d\	-bis	.	2b-\	-bis	.	1.r	.	2B-/	.	2f\	.	2BB-/	2BB-/	.	2d/	.	2b-/	.
!	!	!	!	!LO:DY:color=red	!	!	!	!	!	!	!	!	!	!	!	!	!	!	!	!	!	!	!LO:TX:b:t=Dolce:color=red	!	!	!	!	!	!LO:DY:color=red	!	!	!	!
2r	.	.	2f\	p	2r	.	2r	.	2r	.	.	.	.	.	2r	.	.	2r	.	.	.	.	2f\	.	2f\	.	2FF/	2F\	p	2r	.	2r	.
2r	.	.	2f\	.	2r	.	2r	.	2r	.	.	2f\	-bis	.	2r	.	.	2r	.	.	.	.	2f\	.	2f\	.	2FF/	2F\	.	2r	.	2r	.
=22	=22	=22	=22	=22	=22	=22	=22	=22	=22	=22	=22	=22	=22	=22	=22	=22	=22	=22	=22	=22	=22	=22	=22	=22	=22	=22	=22	=22	=22	=22	=22	=22	=22
!LO:TX:a:t=Pedal	!	!LO:DY:rj:color=red:t=p	!	!	!	!	!	!LO:DY:a:color=red:t=mezzo pia&colon;	!LO:TX:a:t=13	!	!	!LO:TX:a:t=9	!	!	!LO:TX:a:t=13	!	!	!LO:TX:a:t=13	!	!	!	!	!	!	!	!	!	!	!	!LO:TX:b:i:t=Dolce:color=red	!	!LO:TX:a:i:t=Dolce:color=red	!
2FF/	.	p	2f\	.	4r	.	4r	mp	00.r	.	.	00.r	.	.	00.r	.	.	00.r	.	.	1.r	.	2f\	.	2f\	.	2F\	2F\	.	4r	.	4r	.
!	!	!	!	!	!LO:SIC:v:s=4An/	!LO:DY:a:color=red:t=mezz o fort	!LO:TX:t=P:problem:mp=mezzo pia:	!	!	!	!	!	!	!	!	!	!	!	!	!	!	!	!	!	!	!	!	!	!	!	!	!	!
.	.	.	.	.	4A-/	mf	4c/	.	.	.	.	.	.	.	.	.	.	.	.	.	.	.	.	.	.	.	.	.	.	4an/	.	4cc\	.
2r	.	.	2r	.	2c/	.	2e-/	.	.	.	.	.	.	.	.	.	.	.	.	.	.	.	2r	.	2r	.	2r	2r	.	2cc/	.	2ee-\	.
!	!	!	!	!	!LO:SIC:v:s=2A/	!	!	!	!	!	!	!	!	!	!	!	!	!	!	!	!	!	!	!	!LO:TX:b:t=verte Ci[to]	!	!	!	!	!	!	!	!
2r	.	.	2r	.	2A-/	.	2c/	.	.	.	.	.	.	.	.	.	.	.	.	.	.	.	2r	.	2r	.	2r	2r	.	2a/	.	2cc\	.
!	!	!	!	!	!	!	!LO:LB:g=original	!	!	!	!	!	!	!	!	!	!	!	!	!	!	!	!LO:LB:g=original	!	!LO:PB:g=original	!	!	!	!	!	!	!	!
=23	=23	=23	=23	=23	=23	=23	=23	=23	=23	=23	=23	=23	=23	=23	=23	=23	=23	=23	=23	=23	=23	=23	=23	=23	=23	=23	=23	=23	=23	=23	=23	=23	=23
2FF/	.	.	2r	.	2B-/	.	2d/	.	.	.	.	.	.	.	.	.	.	.	.	.	1.r	.	2r	.	2r	.	2r	2r	.	2b-/	.	2dd\	.
2r	.	.	2f\	.	2r	.	2r	.	.	.	.	.	.	.	.	.	.	.	.	.	.	.	2f\	.	2f\	.	2FF/	2F\	.	2r	.	2r	.
2r	.	.	2f\	.	2r	.	2r	.	.	.	.	.	.	.	.	.	.	.	.	.	.	.	2f\	.	2f\	.	2FF/	2F\	.	2r	.	2r	.
!LO:PB:g=original	!	!	!	!	!	!	!	!	!	!	!	!	!	!	!	!	!	!	!	!	!	!	!	!	!	!	!	!	!	!	!	!	!
=24	=24	=24	=24	=24	=24	=24	=24	=24	=24	=24	=24	=24	=24	=24	=24	=24	=24	=24	=24	=24	=24	=24	=24	=24	=24	=24	=24	=24	=24	=24	=24	=24	=24
2FF/	.	.	2f\	.	4r	.	4r	.	.	.	.	.	.	.	.	.	.	.	.	.	1.r	.	2f\	.	2f\	.	2FF/	2F\	.	4r	.	4r	.
.	.	.	.	.	4B-/	.	4d/	.	.	.	.	.	.	.	.	.	.	.	.	.	.	.	.	.	.	.	.	.	.	4b-\	.	4dd\	.
!	!	!	!	!	!	!	!	!	!	!	!	!	!	!	!	!	!	!	!	!	!	!	!	!	!	!	!LO:LB:g=original	!LO:LB:g=original	!	!	!	!	!
2r	.	.	2r	.	2d/	.	2f/	.	.	.	.	.	.	.	.	.	.	.	.	.	.	.	2r	.	2r	.	2r	2r	.	2dd\	.	2ff\	.
2r	.	.	2r	.	2B-/	.	2d/	.	.	.	.	.	.	.	.	.	.	.	.	.	.	.	2r	.	2r	.	2r	2r	.	2b-\	.	2dd\	.
!	!	!	!LO:LB:g=original	!	!	!	!	!	!	!	!	!	!	!	!	!	!	!	!	!	!	!	!	!	!	!	!	!	!	!	!	!	!
=25	=25	=25	=25	=25	=25	=25	=25	=25	=25	=25	=25	=25	=25	=25	=25	=25	=25	=25	=25	=25	=25	=25	=25	=25	=25	=25	=25	=25	=25	=25	=25	=25	=25
!	!	!	!	!	!LO:SIC:v:s=2A/	!	!	!	!	!	!	!	!	!	!	!	!	!	!	!	!	!	!	!	!	!	!	!	!	!	!	!	!
2FF/	.	.	2r	.	2A-/	.	2c/	.	.	.	.	.	.	.	.	.	.	.	.	.	1.r	.	2r	.	2r	.	2r	2r	.	2an/	.	2cc\	.
2r	.	.	2f\	.	2r	.	2r	.	.	.	.	.	.	.	.	.	.	.	.	.	.	.	2f\	.	2f\	.	2F\	2F\	.	2r	.	2r	.
2r	.	.	2f\	.	2r	.	2r	.	.	.	.	.	.	.	.	.	.	.	.	.	.	.	2f\	.	2f\	.	2F\	2F\	.	2r	.	2r	.
=26	=26	=26	=26	=26	=26	=26	=26	=26	=26	=26	=26	=26	=26	=26	=26	=26	=26	=26	=26	=26	=26	=26	=26	=26	=26	=26	=26	=26	=26	=26	=26	=26	=26
2FF/	.	.	2f\	.	4r	.	4r	.	00.r	.	.	00.r	.	.	00.r	.	.	00.r	.	.	1.r	.	2f\	.	2f\	.	2FF/	2F\	.	4r	.	4r	.
.	.	.	.	.	4e-/	.	4g/	.	.	.	.	.	.	.	.	.	.	.	.	.	.	.	.	.	.	.	.	.	.	4ee-\	.	4gg\	.
2r	.	.	2r	.	2d/	.	2f/	.	.	.	.	.	.	.	.	.	.	.	.	.	.	.	2r	.	2r	.	2r	2r	.	2dd\	.	2ff\	.
2r	.	.	2r	.	2c/	.	2e-/	.	.	.	.	.	.	.	.	.	.	.	.	.	.	.	2r	.	2r	.	2r	2r	.	2cc\	.	2ee-\	.
=27	=27	=27	=27	=27	=27	=27	=27	=27	=27	=27	=27	=27	=27	=27	=27	=27	=27	=27	=27	=27	=27	=27	=27	=27	=27	=27	=27	=27	=27	=27	=27	=27	=27
2BB-/	.	.	2B-/	.	4B-/	.	2d/	.	.	.	.	.	.	.	.	.	.	.	.	.	1.r	.	2f\	.	2f\	.	2BB-/	2BB-/	.	4b-/	.	2dd\	.
.	.	.	.	.	4A-X/	.	.	.	.	.	.	.	.	.	.	.	.	.	.	.	.	.	.	.	.	.	.	.	.	4a-X/	.	.	.
2E-\	.	.	2E-/	.	4G/	.	4e-/	.	.	.	.	.	.	.	.	.	.	.	.	.	.	.	2r	.	2r	.	2EE-/	2E-\	.	4g/	.	4ee-\	.
.	.	.	.	.	4d/	.	4f/	.	.	.	.	.	.	.	.	.	.	.	.	.	.	.	.	.	.	.	.	.	.	4dd\	.	4ff\	.
2r	.	.	2r	.	4e-/	.	4g/	.	.	.	.	.	.	.	.	.	.	.	.	.	.	.	2G/	.	2e-\	.	2r	2r	.	4ee-\	.	4gg\	.
.	.	.	.	.	4e-/	.	4g/	.	.	.	.	.	.	.	.	.	.	.	.	.	.	.	.	.	.	.	.	.	.	4gg\	.	4ee-\	.
=28	=28	=28	=28	=28	=28	=28	=28	=28	=28	=28	=28	=28	=28	=28	=28	=28	=28	=28	=28	=28	=28	=28	=28	=28	=28	=28	=28	=28	=28	=28	=28	=28	=28
2B-\	.	.	2b-\	.	2e-/	.	2g/	.	.	.	.	.	.	.	.	.	.	.	.	.	1.r	.	2e-\	.	2g\	.	2B-\	2B-\	.	2ee-\	.	2gg\	.
2BB-/	.	.	2b-\	.	2d/	.	2f/	.	.	.	.	.	.	.	.	.	.	.	.	.	.	.	2B-/	.	2f\	.	2BB-/	2BB-/	.	2dd\	.	2ff\	.
!	!	!	!	!	!	!LO:DY:color=red:t=forto	!	!LO:DY:rj:color=red	!	!	!	!	!	!	!	!	!	!	!	!	!	!	!	!	!	!	!	!	!LO:DY:color=red:t=fort	!	!	!	!
2r	.	.	2r	.	4an/	f	(4aan\	f	.	.	.	.	.	.	.	.	.	.	.	.	.	.	2r	.	2r	.	4An\	4An\	f	2r	.	2r	.
.	.	.	.	.	4b-/	.	4bb-\)	.	.	.	.	.	.	.	.	.	.	.	.	.	.	.	.	.	.	.	4B-\	4B-\	.	.	.	.	.
!	!	!	!	!	!LO:LB:g=original	!	!	!	!	!	!	!	!	!	!	!	!	!	!	!	!	!	!	!	!	!	!	!	!	!	!	!	!
=29	=29	=29	=29	=29	=29	=29	=29	=29	=29	=29	=29	=29	=29	=29	=29	=29	=29	=29	=29	=29	=29	=29	=29	=29	=29	=29	=29	=29	=29	=29	=29	=29	=29
!	!	!	!	!LO:DY:rj:color=red:t=f	!	!	!	!	!	!	!	!	!	!	!	!	!	!	!	!	!	!	!	!	!	!	!	!	!	!	!	!	!
2BB-/	.	.	2B-/	f	2B-/	.	2b-\	.	.	.	.	.	.	.	.	.	.	.	.	.	1.r	.	2BB-/	.	2B-/	.	2BB-/	2BB-/	.	2r	.	2r	.
!	!	!	!	!	!	!	!	!	!	!	!	!	!	!	!	!	!	!	!	!	!	!	!	!	!	!LO:DY:color=red	!	!	!	!	!LO:DY:color=red	!	!LO:DY:color=red
2r	.	.	2r	.	2r	.	2r	.	.	.	.	.	.	.	.	.	.	.	.	.	.	.	2r	.	2r	pp	2r	2r	.	2r	pp	2r	pp
*	*	*	*	*	*2\right	*	*	*	*	*	*	*	*	*	*	*	*	*	*	*	*	*	*	*	*	*	*	*	*	*	*	*	*
!	!	!	!	!LO:DY:rj:color=red	!	!LO:DY:rj:color=red	!	!LO:DY:rj:color=red	!	!	!	!	!	!	!	!	!	!	!	!	!	!	!	!LO:DY:a:color=red	!	!	!	!	!LO:DY:color=red	!	!	!	!
2B-\	.	.	2b-\	pp	2b-\	pp	2b-\	pp	.	.	.	.	.	.	.	.	.	.	.	.	.	.	2BB-/	pp	2B-/	.	2B-\	2B-\	pp	2b-\	.	2b-\	.
!	!	!	!	!	!	!	!	!	!	!	!	!	!	!	!	!	!	!	!	!	!	!	!	!	!	!	!	!	!	!	!	!LO:LB:g=original	!
=30	=30	=30	=30	=30	=30	=30	=30	=30	=30	=30	=30	=30	=30	=30	=30	=30	=30	=30	=30	=30	=30	=30	=30	=30	=30	=30	=30	=30	=30	=30	=30	=30	=30
2B-\	.	.	2b-\	.	2b-\	.	1b-\	.	00.r	.	.	1.r	.	.	00.r	.	.	00.r	.	.	1.r	.	2BB-/	.	2B-/	.	1.ryy	2B-\	.	2b-\	.	2b-\	.
2r	.	.	2r	.	2r	.	.	.	.	.	.	.	.	.	.	.	.	.	.	.	.	.	2r	.	2r	.	.	2r	.	2r	.	2r	.
2r	.	.	2r	.	2r	.	2r	.	.	.	.	.	.	.	.	.	.	.	.	.	.	.	2r	.	2r	.	.	2r	.	2r	.	2r	.
=31	=31	=31	=31	=31	=31	=31	=31	=31	=31	=31	=31	=31	=31	=31	=31	=31	=31	=31	=31	=31	=31	=31	=31	=31	=31	=31	=31	=31	=31	=31	=31	=31	=31
!LO:TX:b:t=organo Solo	!	!	!	!LO:DY:rj:color=red	!	!LO:DY:a:color=red	!	!LO:DY:color=red	!	!	!	!LO:TX:a:t=dolce:color=red	!	!	!	!	!	!	!	!	!	!	!	!LO:DY:color=red:t=fort	!	!	!	!	!	!LO:TX:a:t=4	!	!LO:TX:a:t=4	!
2r	.	.	1G/	p	1e-/	p	1b-\	p	.	.	.	1B-\	A-	.	.	.	.	.	.	.	2r	.	2r	f	2r	.	1.ryy	2r	.	00.r	.	00.r	.
*	*	*	*	*	*	*	*	*	*	*	*	*	*	*	*	*	*	*	*	*	*2\right	*	*	*	*	*	*	*	*	*	*	*	*
!	!	!	!	!	!	!	!	!	!	!	!	!	!	!	!	!	!	!	!	!	!	!LO:DY:rj:t=p&colon;	!	!	!	!LO:DY:color=red	!	!	!LO:DY:color=red	!	!	!	!
2G\	3 6	.	.	.	.	.	.	.	.	.	.	.	.	.	.	.	.	.	.	.	2E-TT\	p	2G/	.	2e-\	p	.	2G\	p	.	.	.	.
!	!	!LO:DY:color=red	!	!	!	!	!LO:TX:b:t=vox:color=red	!	!	!	!	!LO:TX:a:i:t=Solo:color=grey	!	!	!	!	!	!	!	!	!	!	!	!	!	!	!	!	!	!	!	!	!
2F\	3 6	p	2B-/	.	2d/	.	2a-X/	.	.	.	.	2A-\	-gnus	.	.	.	.	.	.	.	2BB-TTT/	.	2B-/	.	2f\	.	.	2F\	.	.	.	.	.
!LO:LB:g=original	!	!	!	!	!	!	!LO:LB:g=original	!	!	!	!	!	!	!	!	!	!	!	!	!	!	!	!	!	!	!	!	!	!	!	!	!	!
=32	=32	=32	=32	=32	=32	=32	=32	=32	=32	=32	=32	=32	=32	=32	=32	=32	=32	=32	=32	=32	=32	=32	=32	=32	=32	=32	=32	=32	=32	=32	=32	=32	=32
2E-\	3	.	1B-/	.	2d/	.	2a-/	.	.	.	.	2A-/	De-	.	.	.	.	.	.	.	1E-\T	.	1e-/	.	1g/	.	1.ryy	2E-\	.	.	.	.	.
2B-\	6	.	.	.	2e-/	.	2g/	.	.	.	.	2G/	-i	.	.	.	.	.	.	.	.	.	.	.	.	.	.	2B-\	.	.	.	.	.
2A-\	6	.	2B-/	.	(4f/	.	(4f/	.	.	.	.	(4F/	qui	.	.	.	.	.	.	.	2BB-/	.	2B-/	.	2f\	.	.	2A-\	.	.	.	.	.
.	.	.	.	.	4d/)	.	4d/)	.	.	.	.	4D/)	.	.	.	.	.	.	.	.	.	.	.	.	.	.	.	.	.	.	.	.	.
=33	=33	=33	=33	=33	=33	=33	=33	=33	=33	=33	=33	=33	=33	=33	=33	=33	=33	=33	=33	=33	=33	=33	=33	=33	=33	=33	=33	=33	=33	=33	=33	=33	=33
2G\	6	.	2B-/	.	2e-/	.	2e-/	.	.	.	.	2E-/	tol-	.	.	.	.	.	.	.	2E-\	.	2G/	.	2e-\	.	1.ryy	2G\	.	.	.	.	.
2D\	3	.	2B-/	.	(4d/	.	(4f/	.	.	.	.	4F/	-lis	.	.	.	.	.	.	.	2BB-/	.	2B-/	.	2f\	.	.	2D\	.	.	.	.	.
.	.	.	.	.	4f/)	.	4a-/)	.	.	.	.	4A-/	pec-	.	.	.	.	.	.	.	.	.	.	.	.	.	.	.	.	.	.	.	.
2E-\	.	.	2B-/	.	(4e-/	.	(4g/	.	.	.	.	4G/	-ca-	.	.	.	.	.	.	.	4E-\	.	4e-\	.	4g\	.	.	2E-\	.	.	.	.	.
.	.	.	.	.	4g/)	.	4b-/)	.	.	.	.	4B-/	-ta	.	.	.	.	.	.	.	4E-\	.	4g\	.	4b-\	.	.	.	.	.	.	.	.
!	!	!	!	!	!	!	!	!	!	!	!	!	!	!	!	!	!	!	!	!	!	!	!	!	!	!	!LO:LB:g=original	!LO:LB:g=original	!	!	!	!	!
=34	=34	=34	=34	=34	=34	=34	=34	=34	=34	=34	=34	=34	=34	=34	=34	=34	=34	=34	=34	=34	=34	=34	=34	=34	=34	=34	=34	=34	=34	=34	=34	=34	=34
2B-\	.	.	1B-/	.	2g/	.	2b-\	.	1.r	.	.	2B-\	mun-	.	1.r	.	.	1.r	.	.	2E-\	.	2g\	.	2b-\	.	1.ryy	2B-\	.	.	.	.	.
!	!	!	!	!	!	!	!	!	!	!	!	!	!	!	!	!	!	!	!	!	!	!	!LO:TX:t=P:problem:urwana strona	!	!	!	!	!	!	!	!	!	!
2BB-/	.	.	.	.	2f/	.	2a-/	.	.	.	.	2A-\	.	.	.	.	.	.	.	.	2E-\	.	2ryy	.	2a-\	.	.	2BB-/	.	.	.	.	.
!	!	!	!	!	!	!	!	!	!	!	!	!	!	!	!	!	!	!	!	!	!	!	!LO:LB:g=original	!	!LO:LB:g=original	!	!	!	!	!	!	!	!
2E-\	.	.	2B-/	.	2e-/	.	2g/	.	.	.	.	2G/	-di	.	.	.	.	.	.	.	2E-\	.	2e-\	.	2g\	.	.	2E-\	.	.	.	.	.
=35	=35	=35	=35	=35	=35	=35	=35	=35	=35	=35	=35	=35	=35	=35	=35	=35	=35	=35	=35	=35	=35	=35	=35	=35	=35	=35	=35	=35	=35	=35	=35	=35	=35
*^	*	*	*	*	*	*	*	*	*	*	*	*	*	*	*	*	*	*	*	*	*	*	*	*	*	*	*	*	*	*	*	*	*
!LO:TX:b:t=Tutti	!	!	!	!	!LO:DY:rj:color=red:t=forto	!	!LO:DY:color=red:t=forto	!	!LO:DY:color=red:t=forto	!	!	!LO:DY:b:color=red	!	!	!	!	!	!	!	!	!	!	!	!	!	!	!LO:DY:color=red:t=fort	!	!	!	!	!	!	!
2r	2ryy	.	.	8.e-\L	f	8.b-\L	f	8.dd-X\L	f	2r	.	f	2r	.	.	2r	.	.	2r	.	.	2E-\	.	2E-/	.	2e-\	f	2r	2r	.	2r	.	2r	.
.	.	.	.	16e-\K	.	16b-\K	.	16dd-\K	.	.	.	.	.	.	.	.	.	.	.	.	.	.	.	.	.	.	.	.	.	.	.	.	.	.
.	.	.	.	8.e-\	.	8.b-\	.	8.dd-\	.	.	.	.	.	.	.	.	.	.	.	.	.	.	.	.	.	.	.	.	.	.	.	.	.	.
.	.	.	.	16e-\Jk	.	16b-\Jk	.	16dd-\Jk	.	.	.	.	.	.	.	.	.	.	.	.	.	.	.	.	.	.	.	.	.	.	.	.	.	.
!	!	!	!LO:DY:color=red:t=fort	!LO:LB:g=original	!	!	!	!	!	!	!	!	!	!	!LO:DY:a:rj:color=red	!	!	!LO:DY:color=red	!	!	!LO:DY:rj:color=red	!	!	!	!	!	!	!	!	!LO:DY:color=red:t=fort	!LO:LB:g=original	!LO:DY:color=red:t=fort	!	!LO:DY:rj:color=red:t=fort
2G/	2GG/	-5 3	f	8.e-\L	.	8.b-\L	.	8.dd-\L	.	2G\	Mi-	.	2e-\	Mi-	f	2b-\	Mi-	f	2dd-X\	Mi-	f	2r	.	2r	.	2r	.	2EE-/	2G\	f	2b-\	f	2dd-X\	f
.	.	.	.	16e-\K	.	16b-\K	.	16dd-\K	.	.	.	.	.	.	.	.	.	.	.	.	.	.	.	.	.	.	.	.	.	.	.	.	.	.
.	.	.	.	8.e-\	.	8.b-\	.	8.dd-\	.	.	.	.	.	.	.	.	.	.	.	.	.	.	.	.	.	.	.	.	.	.	.	.	.	.
.	.	.	.	16e-\Jk	.	16b-\Jk	.	16dd-\Jk	.	.	.	.	.	.	.	.	.	.	.	.	.	.	.	.	.	.	.	.	.	.	.	.	.	.
2G/	2GG/	.	.	8.e-\L	.	8.b-\L	.	8.dd-\L	.	2G\	-se-	.	2e-\	-se-	.	2b-\	-se-	.	2dd-\	-se-	.	2E-\	.	2E-/	.	2e-\	.	2EE-/	2G\	.	2b-\	.	2dd-\	.
.	.	.	.	16e-\K	.	16b-\K	.	16dd-\K	.	.	.	.	.	.	.	.	.	.	.	.	.	.	.	.	.	.	.	.	.	.	.	.	.	.
.	.	.	.	8.e-\	.	8.b-\	.	8.dd-\	.	.	.	.	.	.	.	.	.	.	.	.	.	.	.	.	.	.	.	.	.	.	.	.	.	.
.	.	.	.	16e-\Jk	.	16b-\Jk	.	16dd-\Jk	.	.	.	.	.	.	.	.	.	.	.	.	.	.	.	.	.	.	.	.	.	.	.	.	.	.
*v	*v	*	*	*	*	*	*	*	*	*	*	*	*	*	*	*	*	*	*	*	*	*	*	*	*	*	*	*	*	*	*	*	*	*
!	!	!	!	!	!LO:LB:g=original	!	!	!	!	!	!	!	!	!	!	!	!	!	!	!	!LO:LB:g=original	!	!	!	!	!	!	!	!	!	!	!	!
=36	=36	=36	=36	=36	=36	=36	=36	=36	=36	=36	=36	=36	=36	=36	=36	=36	=36	=36	=36	=36	=36	=36	=36	=36	=36	=36	=36	=36	=36	=36	=36	=36	=36
2r	.	.	8.e-\L	.	8.a-/L	.	8.cc\L	.	2r	.	.	2r	.	.	2r	.	.	2r	.	.	2E-\	.	2E-/	.	2e-\	.	2r	2r	.	2r	.	2r	.
.	.	.	16e-\K	.	16a-/K	.	16cc\K	.	.	.	.	.	.	.	.	.	.	.	.	.	.	.	.	.	.	.	.	.	.	.	.	.	.
.	.	.	8.e-\	.	8.a-/	.	8.cc\	.	.	.	.	.	.	.	.	.	.	.	.	.	.	.	.	.	.	.	.	.	.	.	.	.	.
.	.	.	16e-\Jk	.	16a-/Jk	.	16cc\Jk	.	.	.	.	.	.	.	.	.	.	.	.	.	.	.	.	.	.	.	.	.	.	.	.	.	.
2A-\	3	.	8.e-\L	.	8.a-/L	.	8.cc\L	.	2A-\	-re-	.	2e-\	-re-	.	2a-X\	-re-	.	2cc\	-re-	.	2r	.	2r	.	2r	.	2EE-/	2E-\	.	2a-X/	.	2cc\	.
.	.	.	16e-\K	.	16a-/K	.	16cc\K	.	.	.	.	.	.	.	.	.	.	.	.	.	.	.	.	.	.	.	.	.	.	.	.	.	.
.	.	.	8.e-\	.	8.a-/	.	8.cc\	.	.	.	.	.	.	.	.	.	.	.	.	.	.	.	.	.	.	.	.	.	.	.	.	.	.
.	.	.	16e-\Jk	.	16a-/Jk	.	16cc\Jk	.	.	.	.	.	.	.	.	.	.	.	.	.	.	.	.	.	.	.	.	.	.	.	.	.	.
2A-\	.	.	8.e-\L	.	8.a-/L	.	8.cc\L	.	2A-\	-re	.	2e-\	-re	.	2a-\	-re	.	2cc\	-re	.	2E-\	.	2E-/	.	2e-\	.	2EE-/	2E-\	.	2a-/	.	2cc\	.
.	.	.	16e-\K	.	16a-/K	.	16cc\K	.	.	.	.	.	.	.	.	.	.	.	.	.	.	.	.	.	.	.	.	.	.	.	.	.	.
.	.	.	8.e-\	.	8.a-/	.	8.cc\	.	.	.	.	.	.	.	.	.	.	.	.	.	.	.	.	.	.	.	.	.	.	.	.	.	.
.	.	.	16e-\Jk	.	16a-/Jk	.	16cc\Jk	.	.	.	.	.	.	.	.	.	.	.	.	.	.	.	.	.	.	.	.	.	.	.	.	.	.
=37	=37	=37	=37	=37	=37	=37	=37	=37	=37	=37	=37	=37	=37	=37	=37	=37	=37	=37	=37	=37	=37	=37	=37	=37	=37	=37	=37	=37	=37	=37	=37	=37	=37
*^	*	*	*	*	*	*	*	*	*	*	*	*	*	*	*	*	*	*	*	*	*	*	*	*	*	*	*	*	*	*	*	*	*
2r	2ryy	.	.	8.f\L	.	8.cc\L	.	8.ee-\L	.	2r	.	.	2r	.	.	2r	.	.	2r	.	.	2BB-/	.	2f\	.	2f\	.	2r	2r	.	2r	.	2r	.
.	.	.	.	16f\K	.	16cc\K	.	16ee-\K	.	.	.	.	.	.	.	.	.	.	.	.	.	.	.	.	.	.	.	.	.	.	.	.	.	.
.	.	.	.	8.f\	.	8.cc\	.	8.ee-\	.	.	.	.	.	.	.	.	.	.	.	.	.	.	.	.	.	.	.	.	.	.	.	.	.	.
.	.	.	.	16f\Jk	.	16cc\Jk	.	16ee-\Jk	.	.	.	.	.	.	.	.	.	.	.	.	.	.	.	.	.	.	.	.	.	.	.	.	.	.
*	*	*	*	*	*	*	*	*	*	*	*	*	*	*	*	*	*	*	*	*ij	*	*	*	*	*	*	*	*	*	*	*	*	*	*
!	!	!	!	!	!	!	!	!LO:LB:g=original	!	!	!	!	!	!	!	!	!	!	!	!	!	!	!	!	!	!	!	!	!	!	!	!	!	!
2F/	2FF/	.	.	8.f\L	.	8.cc\L	.	8.ee-\L	.	2An\	Mi-	.	2c\	Mi-	.	2f\	Mi-	.	2ee-\	Mi-	.	2r	.	2r	.	2r	.	2FF/	2An\	.	2cc\	.	2ee-\	.
.	.	.	.	16f\K	.	16cc\K	.	16ee-\K	.	.	.	.	.	.	.	.	.	.	.	.	.	.	.	.	.	.	.	.	.	.	.	.	.	.
.	.	.	.	8.f\	.	8.cc\	.	8.ee-\	.	.	.	.	.	.	.	.	.	.	.	.	.	.	.	.	.	.	.	.	.	.	.	.	.	.
.	.	.	.	16f\Jk	.	16cc\Jk	.	16ee-\Jk	.	.	.	.	.	.	.	.	.	.	.	.	.	.	.	.	.	.	.	.	.	.	.	.	.	.
2F/	2FF/	.	.	8.f\L	.	8.cc\L	.	8.ee-\L	.	2A\	-se-	.	2c\	-se-	.	2f\	-se-	.	2ee-\	-se-	.	2BB-/	.	2f\	.	2f\	.	2FF/	2A\	.	2cc\	.	2ee-\	.
.	.	.	.	16f\K	.	16cc\K	.	16ee-\K	.	.	.	.	.	.	.	.	.	.	.	.	.	.	.	.	.	.	.	.	.	.	.	.	.	.
.	.	.	.	8.f\	.	8.cc\	.	8.ee-\	.	.	.	.	.	.	.	.	.	.	.	.	.	.	.	.	.	.	.	.	.	.	.	.	.	.
.	.	.	.	16f\Jk	.	16cc\Jk	.	16ee-\Jk	.	.	.	.	.	.	.	.	.	.	.	.	.	.	.	.	.	.	.	.	.	.	.	.	.	.
*v	*v	*	*	*	*	*	*	*	*	*	*	*	*	*	*	*	*	*	*	*	*	*	*	*	*	*	*	*	*	*	*	*	*	*
=38	=38	=38	=38	=38	=38	=38	=38	=38	=38	=38	=38	=38	=38	=38	=38	=38	=38	=38	=38	=38	=38	=38	=38	=38	=38	=38	=38	=38	=38	=38	=38	=38	=38
2r	.	.	8.f\L	.	8.b-\L	.	8.ddn\L	.	2r	.	.	2r	.	.	2r	.	.	2r	.	.	2BB-/	.	2f\	.	2f\	.	2r	2r	.	2r	.	2r	.
.	.	.	16f\K	.	16b-\K	.	16dd\K	.	.	.	.	.	.	.	.	.	.	.	.	.	.	.	.	.	.	.	.	.	.	.	.	.	.
.	.	.	8.f\	.	8.b-\	.	8.dd\	.	.	.	.	.	.	.	.	.	.	.	.	.	.	.	.	.	.	.	.	.	.	.	.	.	.
.	.	.	16f\Jk	.	16b-\Jk	.	16dd\Jk	.	.	.	.	.	.	.	.	.	.	.	.	.	.	.	.	.	.	.	.	.	.	.	.	.	.
2BB-/	3	.	8.f\L	.	8.b-\L	.	8.dd\L	.	2B-\	-re-	.	2B-\	-re-	.	2f\	-re-	.	2ddn\	-re-	.	2r	.	2r	.	2r	.	2FF/	2B-\	.	2b-\	.	2ddn\	.
.	.	.	16f\K	.	16b-\K	.	16dd\K	.	.	.	.	.	.	.	.	.	.	.	.	.	.	.	.	.	.	.	.	.	.	.	.	.	.
.	.	.	8.f\	.	8.b-\	.	8.dd\	.	.	.	.	.	.	.	.	.	.	.	.	.	.	.	.	.	.	.	.	.	.	.	.	.	.
.	.	.	16f\Jk	.	16b-\Jk	.	16dd\Jk	.	.	.	.	.	.	.	.	.	.	.	.	.	.	.	.	.	.	.	.	.	.	.	.	.	.
!	!	!	!LO:LB:g=original	!	!	!	!	!	!	!	!	!	!	!	!	!	!	!	!	!	!	!	!	!	!	!	!	!	!	!	!	!	!
2BB-/	.	.	8.f\L	.	8.b-\L	.	8.dd\L	.	2BB-/	-ra	.	2B-\	-re	.	2f\	-re	.	2dd\	-re	.	2BB-/	.	2f\	.	2f\	.	2FF/	2B-\	.	2b-\	.	2dd\	.
.	.	.	16f\K	.	16b-\K	.	16dd\K	.	.	.	.	.	.	.	.	.	.	.	.	.	.	.	.	.	.	.	.	.	.	.	.	.	.
.	.	.	8.f\	.	8.b-\	.	8.dd\	.	.	.	.	.	.	.	.	.	.	.	.	.	.	.	.	.	.	.	.	.	.	.	.	.	.
.	.	.	16f\Jk	.	16b-\Jk	.	16dd\Jk	.	.	.	.	.	.	.	.	.	.	.	.	.	.	.	.	.	.	.	.	.	.	.	.	.	.
*	*	*	*	*	*	*	*	*	*	*ij	*	*	*	*	*	*	*	*	*Xij	*	*	*	*	*	*	*	*	*	*	*	*	*	*
=39	=39	=39	=39	=39	=39	=39	=39	=39	=39	=39	=39	=39	=39	=39	=39	=39	=39	=39	=39	=39	=39	=39	=39	=39	=39	=39	=39	=39	=39	=39	=39	=39	=39
!	!	!	!	!	!	!	!	!	!	!	!	!	!	!	!	!	!	!	!	!	!	!	!	!	!	!	!	!LO:TX:b:t=unus	!	!	!	!	!
4B-\	3_	.	(8a-\L	.	8f/L	.	(8aa-\L	.	1BB-/	Mi-	.	1B-\	Mi-	.	1f\	Mi-	.	1dd\	Mi-	.	1BB-/T	.	1B-/	.	1f/	.	1.ryy	4B-\	.	1f/	.	1dd\	.
.	.	.	8f\)	.	8f/	.	8ff\)	.	.	.	.	.	.	.	.	.	.	.	.	.	.	.	.	.	.	.	.	.	.	.	.	.	.
4BB-/	.	.	(8f\	.	8a-/	.	(8ff\	.	.	.	.	.	.	.	.	.	.	.	.	.	.	.	.	.	.	.	.	4BB-/	.	.	.	.	.
.	.	.	8d\J)	.	8a-/J	.	8dd\J)	.	.	.	.	.	.	.	.	.	.	.	.	.	.	.	.	.	.	.	.	.	.	.	.	.	.
!	!	!	!	!	!LO:TX:t=P:problem:mixed beam	!	!	!	!	!	!	!	!	!	!	!	!	!	!	!	!	!	!	!	!	!	!	!	!	!	!	!	!
4B-\	x	.	(8d\L	.	8dd\L	.	(8dd\L	.	.	.	.	.	.	.	.	.	.	.	.	.	.	.	.	.	.	.	.	4B-\	.	.	.	.	.
.	.	.	8B-\)	.	8dd\	.	8b-\)	.	.	.	.	.	.	.	.	.	.	.	.	.	.	.	.	.	.	.	.	.	.	.	.	.	.
4A-\	.	.	(8B-\	.	8f/	.	(8b-\	.	.	.	.	.	.	.	.	.	.	.	.	.	.	.	.	.	.	.	.	4A-\	.	.	.	.	.
.	.	.	8A-\J)	.	8f/J	.	8a-\J)	.	.	.	.	.	.	.	.	.	.	.	.	.	.	.	.	.	.	.	.	.	.	.	.	.	.
!	!	!	!	!	!LO:LB:g=original	!	!	!	!	!	!	!	!	!	!	!	!	!	!	!	!	!	!	!	!	!	!	!	!	!	!	!	!
!	!	!	!LO:TX:t=P:problem:mixed beam	!	!LO:TX:t=P:problem:mixed beam	!	!	!	!	!	!	!	!	!	!	!	!	!	!	!	!	!	!	!	!	!	!	!	!	!	!	!	!
4G\	6	.	8G/L	.	8g/L	.	(8g\L	.	2E-\	-se-	.	2B-\	-se-	.	2g\	-se-	.	2ee-\	-se-	.	2E-\	.	2e-\	.	2g\	.	.	4G\	.	2g/	.	2ee-\	.
.	.	.	8e-\	.	8g/	.	8ee-\)	.	.	.	.	.	.	.	.	.	.	.	.	.	.	.	.	.	.	.	.	.	.	.	.	.	.
4E-\	.	.	8B-/	.	8ee-\	.	8b-'\	.	.	.	.	.	.	.	.	.	.	.	.	.	.	.	.	.	.	.	.	4E-\	.	.	.	.	.
.	.	.	8B-/J	.	8ee-\J	.	8b-'\J	.	.	.	.	.	.	.	.	.	.	.	.	.	.	.	.	.	.	.	.	.	.	.	.	.	.
!LO:LB:g=original	!	!	!	!	!	!	!	!	!	!	!	!	!	!	!	!	!	!	!	!	!	!	!	!	!	!	!	!	!	!	!	!	!
=40	=40	=40	=40	=40	=40	=40	=40	=40	=40	=40	=40	=40	=40	=40	=40	=40	=40	=40	=40	=40	=40	=40	=40	=40	=40	=40	=40	=40	=40	=40	=40	=40	=40
!	!	!	!	!	!	!	!	!	!	!	!	!LO:TX:t=P:problem:urwana strona	!	!	!	!	!	!	!	!	!	!	!	!	!	!	!	!	!	!	!	!	!
4B-\	3_	.	(8a-\L	.	8f/L	.	(8aa-\L	.	1BB-/	-re-	.	1ryy	.	.	1f\	-re-	.	1dd\	-re-	.	1BB-/T	.	1B-/	.	1f/	.	1.ryy	4D/	.	1f/	.	1dd\	.
.	.	.	8f\)	.	8f/	.	8ff\)	.	.	.	.	.	.	.	.	.	.	.	.	.	.	.	.	.	.	.	.	.	.	.	.	.	.
4BB-/	.	.	(8f\	.	8a-/	.	(8ff\	.	.	.	.	.	.	.	.	.	.	.	.	.	.	.	.	.	.	.	.	4BB-/	.	.	.	.	.
.	.	.	8d\J)	.	8a-/J	.	8dd\J)	.	.	.	.	.	.	.	.	.	.	.	.	.	.	.	.	.	.	.	.	.	.	.	.	.	.
!	!	!	!	!	!LO:TX:t=P:problem:mixed beam	!	!	!	!	!	!	!	!	!	!	!	!	!	!	!	!	!	!	!	!	!	!	!	!	!	!	!	!
4B-\	x	.	(8d\L	.	8dd\L	.	(8dd\L	.	.	.	.	.	.	.	.	.	.	.	.	.	.	.	.	.	.	.	.	4F\	.	.	.	.	.
.	.	.	8B-\)	.	8dd\	.	8b-\)	.	.	.	.	.	.	.	.	.	.	.	.	.	.	.	.	.	.	.	.	.	.	.	.	.	.
4A-\	6	.	(8B-\	.	8f/	.	(8b-\	.	.	.	.	.	.	.	.	.	.	.	.	.	.	.	.	.	.	.	.	4D\	.	.	.	.	.
.	.	.	8A-\J)	.	8f/J	.	8a-\J)	.	.	.	.	.	.	.	.	.	.	.	.	.	.	.	.	.	.	.	.	.	.	.	.	.	.
!	!	!	!LO:TX:t=P:problem:mixed beam	!	!LO:TX:t=P:problem:mixed beam	!	!	!	!	!	!	!	!	!	!	!	!	!	!	!	!	!	!	!	!	!	!	!	!	!	!	!	!
4G\	.	.	8G/L	.	8g/L	.	(8g\L	.	2E-\	-re	.	2B-\	-re	.	2g\	-re	.	2ee-\	-re	.	2E-\	.	2e-\	.	2g\	.	.	4E-\	.	2g/	.	2ee-\	.
*	*	*	*	*	*	*	*	*	*	*Xij	*	*	*	*	*	*	*	*	*	*	*	*	*	*	*	*	*	*	*	*	*	*	*
.	.	.	8e-\	.	8g/	.	8ee-\)	.	.	.	.	.	.	.	.	.	.	.	.	.	.	.	.	.	.	.	.	.	.	.	.	.	.
4F\	.	.	8B-/	.	8ee-\	.	8b-'\	.	.	.	.	.	.	.	.	.	.	.	.	.	.	.	.	.	.	.	.	4G\	.	.	.	.	.
.	.	.	8B-/J	.	8ee-\J	.	8b-'\J	.	.	.	.	.	.	.	.	.	.	.	.	.	.	.	.	.	.	.	.	.	.	.	.	.	.
!	!	!	!	!	!	!	!	!	!	!	!	!	!	!	!	!	!	!LO:LB:g=original	!	!	!	!	!	!	!	!	!	!	!	!	!	!	!
=41	=41	=41	=41	=41	=41	=41	=41	=41	=41	=41	=41	=41	=41	=41	=41	=41	=41	=41	=41	=41	=41	=41	=41	=41	=41	=41	=41	=41	=41	=41	=41	=41	=41
4A-\	6	.	8g\L	.	(8a-/L	.	(8cc\L	.	2A-\	no-	.	2c\	no-	.	2a-\	no-	.	2ff\	no-	.	2r	.	2r	.	2r	.	1.ryy	4A-\	.	2a-/	.	2ff\	.
.	.	.	8g\	.	8cc/)	.	8aa-\)	.	.	.	.	.	.	.	.	.	.	.	.	.	.	.	.	.	.	.	.	.	.	.	.	.	.
4F\	.	.	8f\	.	8a-'/	.	8ff'\	.	.	.	.	.	.	.	.	.	.	.	.	.	.	.	.	.	.	.	.	4F\	.	.	.	.	.
.	.	.	8f\	.	8a-'/J	.	8ff'\J	.	.	.	.	.	.	.	.	.	.	.	.	.	.	.	.	.	.	.	.	.	.	.	.	.	.
!	!	!	!	!	!LO:TX:t=P:problem:mixed beam	!	!	!	!	!	!	!	!	!	!	!	!	!	!	!	!	!	!	!	!	!	!	!	!	!	!	!	!
4B-\	4	.	8f\	.	(8g/L	.	(8b-\L	.	2B-\	.	.	1B-\	.	.	2g\	.	.	2ee-\	.	.	2E-\	.	2e-\	.	2g\	.	.	4B-\	.	2g/	.	2ee-\	.
.	.	.	8f\J	.	8ee-\)	.	8gg\)	.	.	.	.	.	.	.	.	.	.	.	.	.	.	.	.	.	.	.	.	.	.	.	.	.	.
!	!	!	!LO:TX:t=P:problem:pusta druga polowa taktu	!	!	!	!	!	!	!	!	!	!	!	!	!	!	!	!	!	!	!	!	!	!	!	!	!	!	!	!	!	!
4B-\	.	.	4yy/	.	8g'/	.	8ee-'\	.	.	.	.	.	.	.	.	.	.	.	.	.	.	.	.	.	.	.	.	4B-\	.	.	.	.	.
.	.	.	.	.	8g'/J	.	8ee-'\J	.	.	.	.	.	.	.	.	.	.	.	.	.	.	.	.	.	.	.	.	.	.	.	.	.	.
!	!	!	!	!	!LO:TX:t=P:problem:mixed beam	!	!LO:LB:g=original	!	!	!	!	!	!	!	!	!	!	!	!	!	!	!	!	!	!	!	!	!	!	!	!	!	!
4BB-/	3	.	4ryy	.	(8f/L	.	(8cc\L	.	2BB-/	.	.	.	.	.	2f\	.	.	2dd\	.	.	2BB-/	.	2B-/	.	2f\	.	.	4BB-/	.	2f/	.	2dd\	.
.	.	.	.	.	8dd\)	.	8aa-\)	.	.	.	.	.	.	.	.	.	.	.	.	.	.	.	.	.	.	.	.	.	.	.	.	.	.
4BB-/	.	.	4ryy	.	8f'/	.	8ff'\	.	.	.	.	.	.	.	.	.	.	.	.	.	.	.	.	.	.	.	.	4BB-/	.	.	.	.	.
.	.	.	.	.	8f'/J	.	8ff'\J	.	.	.	.	.	.	.	.	.	.	.	.	.	.	.	.	.	.	.	.	.	.	.	.	.	.
!	!	!	!	!	!	!	!	!	!	!	!	!	!	!	!LO:LB:g=original	!	!	!	!	!	!	!	!	!	!	!	!	!	!	!	!	!	!
=42	=42	=42	=42	=42	=42	=42	=42	=42	=42	=42	=42	=42	=42	=42	=42	=42	=42	=42	=42	=42	=42	=42	=42	=42	=42	=42	=42	=42	=42	=42	=42	=42	=42
2E-\	.	.	2b-\	.	2g/	.	4ee-\	.	2E-\	-bis	.	2B-\	-bis	.	2g\	-bis	.	2ee-\	-bis	.	2E-\	.	2G/	.	2e-\	.	1.ryy	2E-\	.	2g/	.	2ee-\	.
.	.	.	.	.	.	.	4b-\	.	.	.	.	.	.	.	.	.	.	.	.	.	.	.	.	.	.	.	.	.	.	.	.	.	.
!	!	!LO:DY:color=red:t=piano	!	!LO:DY:color=red	!	!LO:DY:color=red	!	!	!	!	!	!	!	!	!	!	!	!	!	!	!	!	!	!	!	!	!	!	!	!	!	!	!
2D\	.	p	1b-\	p	2ff\	p	2aa-\	.	2r	.	.	2r	.	.	2r	.	.	2r	.	.	2r	.	2r	.	2r	.	.	2D\	.	2r	.	2r	.
!	!	!	!	!	!	!	!	!LO:DY:rj:color=red	!	!	!	!	!	!	!	!	!	!	!	!	!	!	!	!	!	!	!	!	!	!	!	!	!
4E-\	.	.	.	.	2ee-\	.	2gg\	p	2r	.	.	2r	.	.	2r	.	.	2r	.	.	2E-\	.	2G/	.	2e-\	.	.	4E-\	.	2r	.	2r	.
4G\	.	.	.	.	.	.	.	.	.	.	.	.	.	.	.	.	.	.	.	.	.	.	.	.	.	.	.	4G\	.	.	.	.	.
!	!	!	!	!	!	!	!	!	!LO:LB:g=original	!	!	!	!	!	!	!	!	!	!	!	!	!	!	!	!	!	!LO:LB:g=original	!LO:LB:g=original	!	!	!	!	!
=43	=43	=43	=43	=43	=43	=43	=43	=43	=43	=43	=43	=43	=43	=43	=43	=43	=43	=43	=43	=43	=43	=43	=43	=43	=43	=43	=43	=43	=43	=43	=43	=43	=43
*	*	*	*	*	*	*	*	*	*	*	*below	*	*	*	*	*	*	*	*	*	*	*	*	*	*	*	*	*	*	*	*	*	*
!	!	!	!	!	!	!	!	!	!	!	!LO:DY:color=red	!	!	!LO:DY:b:rj:color=red	!	!	!LO:DY:color=red	!	!	!LO:DY:color=red	!	!	!	!	!	!	!	!	!	!LO:TX:a:t=1	!	!LO:TX:a:t=1	!
2B-\	.	.	2b-\	.	2ee-\	.	2gg\	.	2B-\	no-	p	2B-\	no-	p	2g\	no-	p	2ee-\	no-	p	2E-\	.	2e-\	.	2g\	.	1.ryy	2B-\	.	1.r	.	1.r	.
4BB-/	.	.	2b-\	.	2dd\	.	2ff\	.	2BB-/	-bis	.	2B-\	-bis	.	2f\	-bis	.	2dd\	-bis	.	2BB-/	.	2B-/	.	2f\	.	.	4BB-/	.	.	.	.	.
4A-|\	.	.	.	.	.	.	.	.	.	.	.	.	.	.	.	.	.	.	.	.	.	.	.	.	.	.	.	4A-\	.	.	.	.	.
4G|\	.	.	2r	.	2r	.	2r	.	2r	.	.	2r	.	.	2r	.	.	2r	.	.	2r	.	2r	.	2r	.	.	4G\	.	.	.	.	.
4F|\	.	.	.	.	.	.	.	.	.	.	.	.	.	.	.	.	.	.	.	.	.	.	.	.	.	.	.	4F\	.	.	.	.	.
=44	=44	=44	=44	=44	=44	=44	=44	=44	=44	=44	=44	=44	=44	=44	=44	=44	=44	=44	=44	=44	=44	=44	=44	=44	=44	=44	=44	=44	=44	=44	=44	=44	=44
!	!	!	!	!LO:DY:rj:color=red:t=forto	!	!LO:DY:a:color=red:t=forto	!	!LO:DY:color=red:t=forto	!	!	!LO:DY:color=red:t=fort	!	!	!LO:DY:a:color=red:t=fort	!	!	!LO:DY:color=red:t=forto	!	!	!LO:DY:color=red:t=fort	!	!	!LO:TX:b:t=volti Cito	!	!	!	!	!	!	!	!LO:DY:color=red:t=fort	!	!LO:DY:color=red:t=fort
2r	.	.	1G/	f	1e-/	f	1b-\	f	2r	.	f	1G/	A-	f	1e-\	Ag-	f	(1b-\	A-	f	2r	.	2r	.	2r	.	1.ryy	2r	.	1ee-\	f	1bb-\	f
!	!	!LO:DY:color=red:t=forto	!	!	!	!	!	!	!	!	!	!	!	!	!	!	!	!	!	!	!	!	!LO:PB:g=original	!	!	!LO:DY:rj:color=red:t=fort	!	!	!	!	!	!	!
2G\	.	f	.	.	.	.	.	.	2G\	A-	.	.	.	.	.	.	.	.	.	.	2E-\	.	2G/	.	2e-\	f	.	2G\	.	.	.	.	.
2F\	.	.	2B-/	.	2d/	.	2a-/	.	2F\	-gnus	.	2F/	-gnus	.	2d\	-nus	.	2a-\)	-gnus	.	2BB-/	.	2B-/	.	2f\	.	.	2F\	.	2dd\	.	2aa-\	.
=45	=45	=45	=45	=45	=45	=45	=45	=45	=45	=45	=45	=45	=45	=45	=45	=45	=45	=45	=45	=45	=45	=45	=45	=45	=45	=45	=45	=45	=45	=45	=45	=45	=45
2E-\	.	.	1B-/	.	2d/	.	2a-/	.	2E-\	De-	.	2E-/	De-	.	(2d\	De-	.	(2a-\	De-	.	1E-\T	.	1e-/	.	1g/	.	1.ryy	2E-\	.	2dd\	.	2aa-\	.
!	!	!	!	!	!	!	!	!	!	!	!	!	!	!	!	!	!	!	!	!	!	!	!	!	!	!	!	!	!	!	!	!LO:LB:g=original	!
2B-\	.	.	.	.	2e-/	.	2g/	.	2B-\	.	.	2B-\	.	.	2e-\)	.	.	2g\)	.	.	.	.	.	.	.	.	.	2B-\	.	2ee-\	.	2gg\	.
!	!	!	!	!	!LO:LB:g=original	!	!	!	!	!	!	!	!	!	!	!	!	!	!	!	!	!	!	!	!	!	!	!	!	!	!	!	!
2A-\	.	.	2B-/	.	(4f/	.	4f/	.	2A-\	-i	.	2A-\	-i	.	(4f\	-i	.	(4f/	-i	.	2BB-/	.	2B-/	.	2f\	.	.	2A-\	.	2a-/	.	(4ff\	.
.	.	.	.	.	4d/)	.	4d/	.	.	.	.	.	.	.	4d\)	.	.	4d/)	.	.	.	.	.	.	.	.	.	.	.	.	.	4dd\)	.
!	!	!	!LO:LB:g=original	!	!	!	!	!	!	!	!	!	!	!	!	!	!	!	!	!	!LO:LB:g=original	!	!	!	!LO:LB:g=original	!	!	!	!	!	!	!	!
=46	=46	=46	=46	=46	=46	=46	=46	=46	=46	=46	=46	=46	=46	=46	=46	=46	=46	=46	=46	=46	=46	=46	=46	=46	=46	=46	=46	=46	=46	=46	=46	=46	=46
2G\	.	.	2B-/	.	2e-/	.	2e-/	.	2G\	qui	.	2G/	qui	.	2e-\	qui	.	2e-/	qui	.	2E-\	.	2G/	.	2e-\	.	1.ryy	2G\	.	2g/	.	2ee-\	.
!LO:LB:g=original	!	!	!	!	!	!	!	!	!	!	!	!	!	!	!	!	!	!	!	!	!	!	!	!	!	!	!	!	!	!	!	!	!
2D\	.	.	2B-/	.	(4d/	.	(4f/	.	2D\	tol-	.	[1B-\	tol-	.	(4d\	tol-	.	(4f/	to-	.	2BB-/	.	2B-/	.	2f\	.	.	2D\	.	(4dd\	.	(4ff\	.
.	.	.	.	.	4f/)	.	4a-/)	.	.	.	.	.	.	.	4f\	.	.	4a-/)	.	.	.	.	.	.	.	.	.	.	.	4ff\)	.	4aa-\)	.
2E-\	.	.	2B-/	.	(4e-/	.	(4g/	.	2E-\	-lis	.	.	.	.	4e-\	.	.	(4g/	.	.	4E-\	.	4e-\	.	4g\	.	.	2E-\	.	(4ee-\	.	(4gg\	.
.	.	.	.	.	4g/)	.	4b-/)	.	.	.	.	.	.	.	4g\)	.	.	4b-/)	.	.	4E-\	.	4g\	.	4b-\	.	.	.	.	4gg\)	.	4bb-\)	.
=47	=47	=47	=47	=47	=47	=47	=47	=47	=47	=47	=47	=47	=47	=47	=47	=47	=47	=47	=47	=47	=47	=47	=47	=47	=47	=47	=47	=47	=47	=47	=47	=47	=47
2B-\	.	.	1B-/	.	2g/	.	2b-\	.	(2B-\	tol-	.	1B-\]	.	.	2g\	.	.	2b-\	.	.	2E-\	.	2g\	.	2b-\	.	1.ryy	2B-\	.	2gg\	.	2bb-\	.
2BB-/	.	.	.	.	2f/	.	2a-/	.	2BB-/)	.	.	.	.	.	2f\	.	.	2a-\	.	.	2BB-/	.	2f\	.	2a-\	.	.	2BB-/	.	2ff\	.	2aa-\	.
2E-\	.	.	2B-/	.	2e-/	.	2g/	.	2E-\	-lis	.	2B-\	-lis	.	2e-\	-lis	.	2g\	-lis	.	2E-\	.	2e-\	.	2g\	.	.	2E-\	.	2ee-\	.	2gg\	.
!	!	!	!	!	!	!	!	!	!	!	!	!	!	!	!	!	!	!	!	!	!	!	!	!	!	!	!	!	!	!LO:LB:g=original	!	!	!
=48	=48	=48	=48	=48	=48	=48	=48	=48	=48	=48	=48	=48	=48	=48	=48	=48	=48	=48	=48	=48	=48	=48	=48	=48	=48	=48	=48	=48	=48	=48	=48	=48	=48
!	!	!	!	!	!	!	!	!	!	!	!	!	!	!	!	!	!	!LO:TX:t=P:problem:brak tekstu, strona porwana i sklejona	!	!	!	!	!	!	!	!	!	!	!	!	!	!	!
2A-\	.	.	2e-\	.	2a-/	.	2cc\	.	2A-\	pec-	.	2e-\	pec-	.	2a-\	pec-	.	1cc\	[Pec]-	.	2r	.	2r	.	2r	.	2A-\	2c\	.	2r	.	2r	.
2r	.	.	2r	.	2r	.	2r	.	2r	.	.	2r	.	.	2r	.	.	.	.	.	2E-\	.	2E-/	.	2e-\	.	2c\	2e-\	.	2cc\	.	2a-/	.
2A-\	.	.	2e-\	.	2a-/	.	2cc\	.	2A-\	-ca-	.	2e-\	-ca-	.	2a-\	-ca-	.	2cc\	-ca-	.	2r	.	2r	.	2r	.	2c\	2e-\	.	2r	.	2r	.
=49	=49	=49	=49	=49	=49	=49	=49	=49	=49	=49	=49	=49	=49	=49	=49	=49	=49	=49	=49	=49	=49	=49	=49	=49	=49	=49	=49	=49	=49	=49	=49	=49	=49
2G\	.	.	2e-\	.	2g/	.	2b-\	.	2G\	-ta	.	2e-\	-ta	.	2g\	-ta	.	2b-\	-t[a]	.	2r	.	2r	.	2r	.	2G\	2B-\	.	2r	.	2r	.
.	.	.	.	.	.	.	.	.	.	.	.	.	.	.	.	.	.	.	.	.	.	.	.	.	.	.	.	8qqd/	.	.	.	.	.
2r	.	.	2r	.	2r	.	2r	.	2r	.	.	2r	.	.	2r	.	.	2r	.	.	2E-\	.	2E-/	.	2e-\	.	2B-\	2e-\	.	2b-\	.	2g/	.
*	*	*	*	*	*	*	*	*	*	*	*	*	*ij	*	*	*	*	*	*	*	*	*	*	*	*	*	*	*	*	*	*	*	*
2G\	.	.	2e-\	.	2g/	.	2b-\	.	2G\	pec-	.	2e-\	pec-	.	2g\	pec-	.	2b-\	pec-	.	2r	.	2r	.	2r	.	2G\	2B-\	.	2r	.	2r	.
!	!	!	!	!	!	!	!	!	!	!	!	!	!	!	!	!	!	!LO:PB:g=original	!	!	!	!	!	!	!	!	!	!	!	!	!	!	!
=50	=50	=50	=50	=50	=50	=50	=50	=50	=50	=50	=50	=50	=50	=50	=50	=50	=50	=50	=50	=50	=50	=50	=50	=50	=50	=50	=50	=50	=50	=50	=50	=50	=50
2F\	.	.	2d\	.	2d/	.	(4b-/	.	(2F\	-ca-	.	(2d\	-ca-	.	2d\	-ca-	.	(4b-\	-ca-	.	2r	.	2r	.	2r	.	2D/	4B-\	.	2r	.	2r	.
!	!	!	!	!	!	!	!	!	!	!	!	!	!	!	!	!	!	!	!	!	!	!	!	!	!	!	!	!LO:N:acc=#	!	!	!	!	!
.	.	.	.	.	.	.	4an/	.	.	.	.	.	.	.	.	.	.	(4an\)	.	.	.	.	.	.	.	.	.	4An\	.	.	.	.	.
2D\	.	.	2B-/	.	2f/	.	2a-X/	.	2D\)	.	.	2B-\)	.	.	2f\	.	.	2a-X\)	.	.	2BB-/	.	2f\	.	2a-\	.	2BB-/	2A-X\	.	2ff\	.	2aa-\	.
2E-\	.	.	2B-/	.	2e-/	.	2g/)	.	2E-\	-ta	.	2B-\	-ta	.	2e-\	-ta	.	2g\	-ta	.	2E-\	.	2e-\	.	2g\	.	2E-\	2G\	.	2ee-\	.	2gg\	.
*	*	*	*	*	*	*	*	*	*	*	*	*	*Xij	*	*	*	*	*	*	*	*	*	*	*	*	*	*	*	*	*	*	*	*
!	!	!	!	!	!	!	!LO:LB:g=original	!	!	!	!	!LO:LB:g=original	!	!	!	!	!	!	!	!	!	!	!	!	!	!	!	!	!	!	!	!	!
=51	=51	=51	=51	=51	=51	=51	=51	=51	=51	=51	=51	=51	=51	=51	=51	=51	=51	=51	=51	=51	=51	=51	=51	=51	=51	=51	=51	=51	=51	=51	=51	=51	=51
!	!	!	!	!	!	!	!	!	!	!	!	!LO:TX:t=P:problem:urwana strona	!	!	!	!	!	!	!	!	!	!	!	!	!	!	!	!	!	!	!	!	!
2B-\	.	.	2B-/	.	2e-/	.	2g/	.	2B-\	mun-	.	4ryy	.	.	2e-\	Mun-	.	2g/	mun-	.	2E-\	.	2e-\	.	2g\	.	2BB-/	2G\	.	2ee-\	.	2gg\	.
.	.	.	.	.	.	.	.	.	.	.	.	4B-\	[mu]n-	.	.	.	.	.	.	.	.	.	.	.	.	.	.	.	.	.	.	.	.
2BB-/	.	.	2b-\	.	2d/	.	2f/	.	2BB-/	-di	.	2B-\	-di	.	2d\	-di	.	2f/	-di	.	2BB-/	.	2B-/	.	2f\	.	2BBB-/	2F\	.	2dd\	.	2ff\	.
2r	.	.	2r	.	2r	.	2r	.	2r	.	.	2r	.	.	2r	.	.	2r	.	.	2r	.	2r	.	2r	.	2r	2r	.	2r	.	2r	.
!	!	!	!	!	!	!	!	!	!	!	!	!	!	!	!LO:LB:g=original	!	!	!	!	!	!	!	!LO:LB:g=original	!	!	!	!LO:LB:g=original	!LO:LB:g=original	!	!	!	!	!
=52	=52	=52	=52	=52	=52	=52	=52	=52	=52	=52	=52	=52	=52	=52	=52	=52	=52	=52	=52	=52	=52	=52	=52	=52	=52	=52	=52	=52	=52	=52	=52	=52	=52
!	!	!	!	!	!	!	!	!	!	!	!	!	!	!	!	!	!	!	!	!	!LO:TX:a:t=11.	!	!	!	!	!	!	!LO:TX:b:i:t=Dolce:color=red	!	!	!	!	!
2BB-/	.	.	1f\	.	1b-\	.	1dd\	.	2B-\	Ag-	.	1B-\	A-	.	1b-\	A-	.	1dd\	A-	.	1.r	.	1B-/	.	1f/	.	1BB-/	1F\	.	1f/	.	1dd\	.
2A-\	.	.	.	.	.	.	.	.	2A-\	.	.	.	.	.	.	.	.	.	.	.	.	.	.	.	.	.	.	.	.	.	.	.	.
!	!	!	!	!	!LO:TUP:a	!	!	!	!	!	!	!	!	!	!	!	!	!	!	!	!	!	!	!	!	!	!LO:TUP:a	!LO:TUP:a	!	!	!	!	!
!	!	!	!	!	!LO:TX:t=P:problem:klamra łukowa	!	!LO:TX:t=P:problem:klamra łukowa	!	!LO:LB:g=original	!	!	!LO:TX:t=P:problem:klamra łukowa	!	!	!	!	!	!LO:TX:t=P:problem:klamra łukowa	!	!	!	!	!	!	!	!	!LO:TX:t=P:problem:klamra łukowa	!LO:TX:t=P:problem:klamra łukowa	!	!	!	!	!
2G\	.	.	2g\	.	6g\	.	6ee-\	.	2G\	-nus	.	6G\	-gnus	.	2b-\	-gnus	.	6ee-\	-gnus	.	.	.	2e-\	.	2g\	.	6GG/	6E-\	.	2g/	.	2ee-\	.
.	.	.	.	.	6ee-\	.	6gg\	.	.	.	.	6e-\	.	.	.	.	.	6gg\	.	.	.	.	.	.	.	.	6E-\	6G\	.	.	.	.	.
.	.	.	.	.	6gg\	.	6bb-\	.	.	.	.	6g\	.	.	.	.	.	6bb-\	.	.	.	.	.	.	.	.	6G\	6B-\	.	.	.	.	.
=53	=53	=53	=53	=53	=53	=53	=53	=53	=53	=53	=53	=53	=53	=53	=53	=53	=53	=53	=53	=53	=53	=53	=53	=53	=53	=53	=53	=53	=53	=53	=53	=53	=53
2F\	.	.	2f\	.	(4gg\	.	(4bb-\	.	(2F\	De-	.	(4g\	De-	.	1b-\	De-	.	(4bb-\	De-	.	1.r	.	1B-/	.	1f/	.	4G\	4B-\	.	1a-/	.	1ff\	.
.	.	.	.	.	4ff\)	.	4aa-\)	.	.	.	.	4f\	.	.	.	.	.	4aa-\)	.	.	.	.	.	.	.	.	4F\	4A-\	.	.	.	.	.
2BB-/	.	.	2d\	.	(4ff\	.	(4aa-\	.	2D\)	.	.	4f\	.	.	.	.	.	(4aa-\	.	.	.	.	.	.	.	.	4F\	4A-\	.	.	.	.	.
.	.	.	.	.	4ee-\)	.	4gg\)	.	.	.	.	4e-\)	.	.	.	.	.	4gg\)	.	.	.	.	.	.	.	.	4E-\	4G\	.	.	.	.	.
2E-\	.	.	2e-\	.	2ee-\	.	2gg\	.	2E-\	-i	.	2e-\	-i	.	2b-\	-i	.	2gg\	-i	.	.	.	2G/	.	2e-\	.	2E-\	2G\	.	2g/	.	2ee-\	.
!	!	!	!	!	!LO:LB:g=original	!	!	!	!	!	!	!	!	!	!	!	!	!	!	!	!	!	!	!	!	!	!	!	!	!	!	!	!
=54	=54	=54	=54	=54	=54	=54	=54	=54	=54	=54	=54	=54	=54	=54	=54	=54	=54	=54	=54	=54	=54	=54	=54	=54	=54	=54	=54	=54	=54	=54	=54	=54	=54
2BB-/	.	.	1f\	.	1b-\	.	1dd\	.	2B-\	qui	.	1B-\	qui	.	[2b-\	qui	.	1dd\	qui	.	1.r	.	1B-/	.	1f/	.	1BB-/	1F\	.	1f/	.	1dd\	.
!LO:LB:g=original	!	!	!	!	!	!	!	!	!	!	!	!	!	!	!	!	!	!	!	!	!	!	!	!	!	!	!	!	!	!	!	!	!
2A-\	.	.	.	.	.	.	.	.	2A-\	tol-	.	.	.	.	1b-\]	.	.	.	.	.	.	.	.	.	.	.	.	.	.	.	.	.	.
!	!	!	!	!	!LO:TUP:a	!	!	!	!	!	!	!	!	!	!	!	!	!	!	!	!	!	!	!	!	!	!LO:TUP:a	!LO:TUP:a	!	!	!	!	!
!	!	!	!	!	!LO:TX:t=P:problem:klamra łukowa	!	!LO:TX:t=P:problem:klamra łukowa	!	!	!	!	!LO:TX:t=P:problem:klamra łukowa	!	!	!	!	!	!LO:TX:t=P:problem:klamra łukowa	!	!	!	!	!	!	!	!	!LO:TX:t=P:problem:klamra łukowa	!LO:TX:t=P:problem:klamra łukowa	!	!	!	!	!
2G\	.	.	2g\	.	6g\	.	6ee-\	.	2G\	-lis	.	6G\	tol-	.	.	.	.	6ee-\	tol-	.	.	.	2e-\	.	2g\	.	6GG/	6E-\	.	2g/	.	2ee-\	.
.	.	.	.	.	6ee-\	.	6gg\	.	.	.	.	6e-\	.	.	.	.	.	6gg\	.	.	.	.	.	.	.	.	6E-\	6G\	.	.	.	.	.
.	.	.	.	.	6gg\	.	6bb-\	.	.	.	.	6g\	.	.	.	.	.	6bb-\	.	.	.	.	.	.	.	.	6G\	6B-\	.	.	.	.	.
!	!	!	!	!	!	!	!	!	!	!	!	!	!	!	!	!	!	!	!	!	!	!	!	!	!	!	!	!	!	!	!	!LO:LB:g=original	!
=55	=55	=55	=55	=55	=55	=55	=55	=55	=55	=55	=55	=55	=55	=55	=55	=55	=55	=55	=55	=55	=55	=55	=55	=55	=55	=55	=55	=55	=55	=55	=55	=55	=55
2F\	.	.	2f\	.	(4gg\	.	(4bb-\	.	2F\	tol-	.	(4g\	.	.	1b-\	tol-	.	(4bb-\	.	.	1.r	.	1B-/	.	1f/	.	4G\	4B-\	.	1dd\	.	1ff\	.
.	.	.	.	.	4ff\)	.	4aa-\)	.	.	.	.	4f\	.	.	.	.	.	4aa-\)	.	.	.	.	.	.	.	.	4F\	4A-\	.	.	.	.	.
2D\	.	.	2d\	.	(4ff\	.	(4aa-\	.	2D\	.	.	4f\	.	.	.	.	.	(4aa-\	.	.	.	.	.	.	.	.	4F\	4A-\	.	.	.	.	.
.	.	.	.	.	4ee-\)	.	4gg\)	.	.	.	.	4e-\)	.	.	.	.	.	4gg\)	.	.	.	.	.	.	.	.	4E-\	4G\	.	.	.	.	.
2E-\	.	.	2e-\	.	2ee-\	.	2gg\	.	2E-\	-lis	.	2e-\	-lis	.	2b-\	-lis	.	2gg\	-lis	.	.	.	2G/	.	2e-\	.	2E-\	2G\	.	2ee-\	.	2gg\	.
=56	=56	=56	=56	=56	=56	=56	=56	=56	=56	=56	=56	=56	=56	=56	=56	=56	=56	=56	=56	=56	=56	=56	=56	=56	=56	=56	=56	=56	=56	=56	=56	=56	=56
!	!	!	!	!	!	!	!	!	!	!	!	!	!	!	!	!	!	!	!	!	!	!	!	!	!	!	!	!	!	!	!	!LO:TUP:a	!
!	!	!	!	!	!	!	!LO:TX:t=P:problem:klamra łukowa	!	!	!	!	!	!	!	!	!	!	!	!	!	!	!	!	!	!	!	!	!	!	!	!	!LO:TX:t=P:problem:klamra łukowa	!
2A-\	.	.	2cc\	.	2cc\	.	6ff\	.	2A-\	pec-	.	2c\	pec-	.	2a-\	pec-	.	2ff\	Pec-	.	1.r	.	2r	.	2r	.	1.ryy	2A-\	.	2cc\	.	6ff\	.
.	.	.	.	.	.	.	6gg\	.	.	.	.	.	.	.	.	.	.	.	.	.	.	.	.	.	.	.	.	.	.	.	.	6gg\	.
.	.	.	.	.	.	.	6aa-\	.	.	.	.	.	.	.	.	.	.	.	.	.	.	.	.	.	.	.	.	.	.	.	.	6aa-\	.
!	!	!	!	!	!	!	!	!	!	!	!	!	!	!	!	!	!	!LO:LB:g=original	!	!	!	!	!	!	!	!	!	!	!	!	!	!	!
2B-\	.	.	2b-\	.	2g/	.	2ee-\	.	2B-\	-ca-	.	1B-\	-ca-	.	2g\	-ca-	.	2ee-\	-ca-	.	.	.	2e-\	.	2g\	.	.	2B-\	.	2g/	.	2ee-\	.
2BB-/	.	.	2b-\	.	2f/	.	2dd\	.	2BB-/	-ta	.	.	.	.	2f\	-ta	.	2dd\	-ta	.	.	.	2B-/	.	2f\	.	.	2BB-/	.	2f/	.	2dd\	.
!	!	!	!LO:LB:g=original	!	!	!	!	!	!	!	!	!	!	!	!	!	!	!	!	!	!	!	!	!	!	!	!	!	!	!	!	!	!
=57	=57	=57	=57	=57	=57	=57	=57	=57	=57	=57	=57	=57	=57	=57	=57	=57	=57	=57	=57	=57	=57	=57	=57	=57	=57	=57	=57	=57	=57	=57	=57	=57	=57
2E-\	.	.	1b-\	.	1f/	.	(1dd\	.	1BB-/	mun-	.	1.B-\	-ta	.	1f\	mun-	.	1dd\	Mun-	.	1.r	.	1B-/	.	1f/	.	1.ryy	2E-\	.	1f/	.	1dd\	.
2BB-/	.	.	.	.	.	.	.	.	.	.	.	.	.	.	.	.	.	.	.	.	.	.	.	.	.	.	.	2BB-/	.	.	.	.	.
2E-\	.	.	2b-\	.	2g/	.	2ee-|\)	.	2E-\	-di	.	.	.	.	2g\	-di	.	2ee-\	-di	.	.	.	2G/	.	2e-\	.	.	2EE-/	.	2g/	.	2ee-\	.
!	!	!	!	!	!	!	!	!	!	!	!	!	!	!	!	!	!	!	!	!	!	!	!	!	!LO:LB:g=original	!	!	!	!	!	!	!	!
=58	=58	=58	=58	=58	=58	=58	=58	=58	=58	=58	=58	=58	=58	=58	=58	=58	=58	=58	=58	=58	=58	=58	=58	=58	=58	=58	=58	=58	=58	=58	=58	=58	=58
*	*	*	*	*	*^	*	*^	*	*	*	*	*	*	*	*	*	*	*	*	*	*	*	*	*	*	*	*	*	*	*	*	*	*
*	*	*	*	*	*	*cue	*	*	*cue	*	*	*	*	*	*	*	*	*	*	*	*	*	*	*	*	*	*	*	*	*	*	*	*	*	*
!	!	!	!	!	!LO:TX:t=P:problem:partia corno mniejszą czcionką	!	!	!	!	!	!	!	!	!	!	!	!	!	!	!	!	!	!	!	!	!	!	!	!	!	!	!	!	!	!
!	!	!	!	!	!LO:TX:a:t=Corn solo	!	!	!LO:TX:a:t=1	!	!	!	!	!	!	!	!	!	!	!	!	!	!	!	!	!	!	!	!	!	!	!	!LO:TX:b:i:t=Solo	!	!	!
!LO:TX:a:t=4	!	!	!LO:TX:a:t=4	!	!LO:TX:a:t=1	!	!	!LO:TX:b:t=Corne soli	!	!	!LO:TX:a:t=4	!	!	!LO:TX:a:t=4	!	!	!	!	!	!LO:TX:a:t=4	!	!	!	!	!LO:TX:b:t=Dolce:color=red	!	!LO:TX:b:t=Dolce:color=red	!	!	!	!	!LO:TX:a:i:t=Dolce:color=red	!	!LO:TX:b:i:t=Dolce:color=red	!
00.r	.	.	00.r	.	1.rdd	1B-\	.	1.rff	1f\	.	00.r	.	.	00.r	.	.	00.r	.	.	00.r	.	.	1.r	.	1B-/	.	1f/	.	1.ryy	2BB-/	.	1dd\	.	1ff\	.
.	.	.	.	.	.	.	.	.	.	.	.	.	.	.	.	.	.	.	.	.	.	.	.	.	.	.	.	.	.	2A-\	.	.	.	.	.
!	!	!	!	!	!	!LO:TUP:a	!	!	!LO:TUP:a	!	!	!	!	!	!	!	!	!	!	!	!	!	!	!	!LO:TUP:a	!	!LO:TUP:a	!	!	!	!	!	!	!LO:TUP:a	!
!	!	!	!	!	!	!LO:TX:t=P:problem:klamra łukowa	!	!	!LO:TX:t=P:problem:klamra łukowa	!	!	!	!	!	!	!	!	!	!	!	!	!	!	!	!LO:TX:t=P:problem:klamra łukowa	!	!LO:TX:t=P:problem:klamra łukowa	!	!	!	!	!	!	!LO:TX:t=P:problem:klamra łukowa	!
.	.	.	.	.	.	6G\	.	.	6e-\	.	.	.	.	.	.	.	.	.	.	.	.	.	.	.	6G/	.	6e-\	.	.	2G\	.	(4ee-\	.	6ee-\	.
.	.	.	.	.	.	6e-\	.	.	6g\	.	.	.	.	.	.	.	.	.	.	.	.	.	.	.	6e-\	.	6g\	.	.	.	.	.	.	6gg\	.
.	.	.	.	.	.	.	.	.	.	.	.	.	.	.	.	.	.	.	.	.	.	.	.	.	.	.	.	.	.	.	.	4gg\)	.	.	.
.	.	.	.	.	.	6g\	.	.	6b-\	.	.	.	.	.	.	.	.	.	.	.	.	.	.	.	6g\	.	6b-\	.	.	.	.	.	.	6bb-\	.
=59	=59	=59	=59	=59	=59	=59	=59	=59	=59	=59	=59	=59	=59	=59	=59	=59	=59	=59	=59	=59	=59	=59	=59	=59	=59	=59	=59	=59	=59	=59	=59	=59	=59	=59	=59
!	!	!	!	!	!LO:TX:a:t=2	!	!	!LO:TX:a:t=2	!	!	!	!	!	!	!	!	!	!	!	!	!	!	!	!	!	!	!	!	!	!	!	!	!	!	!
.	.	.	.	.	1.rdd	4g\	.	1.rff	(>4b-\	.	.	.	.	.	.	.	.	.	.	.	.	.	1.r	.	4g\	.	4b-\	.	1.ryy	2F\	.	(4gg\	.	(4bb-\	.
.	.	.	.	.	.	4f\	.	.	4a-\)	.	.	.	.	.	.	.	.	.	.	.	.	.	.	.	4f\	.	4a-\	.	.	.	.	4ff\)	.	4aa-\)	.
.	.	.	.	.	.	4f\	.	.	(>4a-\	.	.	.	.	.	.	.	.	.	.	.	.	.	.	.	4f\	.	4a-\	.	.	2BB-/	.	(4ff\	.	(4aa-\	.
.	.	.	.	.	.	4e-\	.	.	4g\)	.	.	.	.	.	.	.	.	.	.	.	.	.	.	.	4e-\	.	4g\	.	.	.	.	4ee-\)	.	4gg\)	.
.	.	.	.	.	.	2e-\	.	.	2g\	.	.	.	.	.	.	.	.	.	.	.	.	.	.	.	2e-\	.	2g\	.	.	2E-\	.	2ee-\	.	2gg\	.
=60	=60	=60	=60	=60	=60	=60	=60	=60	=60	=60	=60	=60	=60	=60	=60	=60	=60	=60	=60	=60	=60	=60	=60	=60	=60	=60	=60	=60	=60	=60	=60	=60	=60	=60	=60
!	!	!	!	!	!LO:TX:a:t=3	!	!	!LO:TX:a:t=3	!	!	!	!	!	!	!	!	!	!	!	!	!	!	!	!	!	!	!	!	!	!	!	!	!	!LO:TX:t=P:problem:tt. 60-61 - repetycja oznaczona "bis"	!
.	.	.	.	.	1.rdd	1B-\	.	1.rff	1f\	.	.	.	.	.	.	.	.	.	.	.	.	.	1.r	.	1B-/	.	1f/	.	1.ryy	2BB-/	.	1dd\	.	1ff\yy	.
.	.	.	.	.	.	.	.	.	.	.	.	.	.	.	.	.	.	.	.	.	.	.	.	.	.	.	.	.	.	2A-\	.	.	.	.	.
!	!	!	!	!	!	!LO:TUP:a	!	!	!LO:TX:t=P:problem:klamra łukowa	!	!	!	!	!	!	!	!	!	!	!	!	!	!	!	!LO:TX:t=P:problem:klamra łukowa	!	!LO:TX:t=P:problem:klamra łukowa	!	!	!	!	!	!	!LO:TX:t=P:problem:klamra łukowa	!
!	!	!	!	!	!	!LO:TX:t=P:problem:klamra łukowa	!	!	!LO:TUP:a	!	!	!	!	!	!	!	!	!	!	!	!	!	!	!	!LO:TUP:a	!	!LO:TUP:a	!	!	!	!	!	!	!LO:TUP:a	!
.	.	.	.	.	.	6G\	.	.	6e-\	.	.	.	.	.	.	.	.	.	.	.	.	.	.	.	6G/	.	6e-\	.	.	2G\	.	(4ee-\	.	6ee-\yy	.
.	.	.	.	.	.	6e-\	.	.	6g\	.	.	.	.	.	.	.	.	.	.	.	.	.	.	.	6e-\	.	6g\	.	.	.	.	.	.	6gg\yy	.
.	.	.	.	.	.	.	.	.	.	.	.	.	.	.	.	.	.	.	.	.	.	.	.	.	.	.	.	.	.	.	.	4gg\)	.	.	.
.	.	.	.	.	.	6g\	.	.	6b-\	.	.	.	.	.	.	.	.	.	.	.	.	.	.	.	6g\	.	6b-\	.	.	.	.	.	.	6bb-\yy	.
!	!	!	!	!	!LO:LB:g=original	!LO:LB:g=original	!	!	!	!	!	!	!	!	!	!	!	!	!	!	!	!	!	!	!	!	!	!	!	!	!	!LO:LB:g=original	!	!	!
=61	=61	=61	=61	=61	=61	=61	=61	=61	=61	=61	=61	=61	=61	=61	=61	=61	=61	=61	=61	=61	=61	=61	=61	=61	=61	=61	=61	=61	=61	=61	=61	=61	=61	=61	=61
!	!	!	!	!	!LO:TX:a:t=4	!	!	!LO:TX:a:t=4	!	!	!	!	!	!	!	!	!	!	!	!	!	!	!	!	!	!	!	!	!	!	!	!	!	!	!
.	.	.	.	.	1.rdd	(>4g\	.	1.rff	(>4b-\	.	.	.	.	.	.	.	.	.	.	.	.	.	1.r	.	4g\	.	4b-\	.	1.ryy	2F\	.	(4gg\	.	(4bb-\yy	.
.	.	.	.	.	.	4f\)	.	.	4a-\)	.	.	.	.	.	.	.	.	.	.	.	.	.	.	.	4f\	.	4a-\	.	.	.	.	4ff\)	.	4aa-\)yy	.
.	.	.	.	.	.	(>4f\	.	.	(>4a-\	.	.	.	.	.	.	.	.	.	.	.	.	.	.	.	4f\	.	4a-\	.	.	2BB-/	.	(4ff\	.	(4aa-\yy	.
.	.	.	.	.	.	4e-\)	.	.	2.g\)	.	.	.	.	.	.	.	.	.	.	.	.	.	.	.	4e-\	.	4g\	.	.	.	.	4ee-\)	.	4gg\)yy	.
.	.	.	.	.	.	2e-\	.	.	.	.	.	.	.	.	.	.	.	.	.	.	.	.	.	.	2e-\	.	2g\	.	.	2E-\	.	2ee-\	.	2gg\yy	.
*	*	*	*	*	*	*Xcue	*	*	*Xcue	*	*	*	*	*	*	*	*	*	*	*	*	*	*	*	*	*	*	*	*	*	*	*	*	*	*
*	*	*	*	*	*v	*v	*	*	*	*	*	*	*	*	*	*	*	*	*	*	*	*	*	*	*	*	*	*	*	*	*	*	*	*	*
*	*	*	*	*	*	*	*v	*v	*	*	*	*	*	*	*	*	*	*	*	*	*	*	*	*	*	*	*	*	*	*	*	*	*	*
=62	=62	=62	=62	=62	=62	=62	=62	=62	=62	=62	=62	=62	=62	=62	=62	=62	=62	=62	=62	=62	=62	=62	=62	=62	=62	=62	=62	=62	=62	=62	=62	=62	=62
!	!	!	!	!	!	!	!	!	!	!	!	!	!	!	!	!	!	!	!	!	!	!	!LO:TX:t=P:problem:urwana strona	!	!	!	!	!	!	!	!LO:DY:color=red:t=fort	!	!LO:DY:color=red:t=fort
2r	.	.	2r	.	1b-\	.	1gg\	.	2r	.	.	2r	.	.	2r	.	.	2r	.	.	1.r	.	2ryy	.	2e-\	.	2r	2r	.	1b-\	f	1gg\	f
!	!	!	!	!	!	!	!	!	!	!	!	!	!	!	!	!	!	!	!	!	!	!	!LO:LB:g=original	!	!	!	!	!	!LO:DY:rj:color=red:t=fort	!	!	!	!
2E-\	.	.	2e-\	.	.	.	.	.	2E-\	mun-	.	2e-\	mun-	.	1b-\	Mun-	.	2gg\	Mun-	.	.	.	2r	.	2r	.	2E-\	2E-\	f	.	.	.	.
2D\	.	.	2d\	.	2b-\	.	2ff\	.	2D\	.	.	2d\	.	.	.	.	.	2ff\	.	.	.	.	2r	.	2r	.	2D\	2D\	.	2b-\	.	2ff\	.
!	!	!	!	!	!	!	!LO:LB:g=original	!	!	!	!	!	!	!	!	!	!	!	!	!	!	!	!	!	!	!	!	!	!	!	!	!	!
=63	=63	=63	=63	=63	=63	=63	=63	=63	=63	=63	=63	=63	=63	=63	=63	=63	=63	=63	=63	=63	=63	=63	=63	=63	=63	=63	=63	=63	=63	=63	=63	=63	=63
1C/	.	.	1.c\	.	1b-\	.	2ff\	.	1C/	.	.	1c\	.	.	1b-\	.	.	2ff\	.	.	2r	.	2r	.	2r	.	1C/	1C/	.	1b-\	.	2ff\	.
.	.	.	.	.	.	.	1ee-\	.	.	.	.	.	.	.	.	.	.	1ee-\	.	.	2r	.	2r	.	2r	.	.	.	.	.	.	1ee-\	.
2FF/	.	.	.	.	2an\	.	.	.	2F\	.	.	2f\	.	.	2an\	.	.	.	.	.	2BB-/	.	2f\	.	2f\	.	2FF/	2F\	.	2an/	.	.	.
=64	=64	=64	=64	=64	=64	=64	=64	=64	=64	=64	=64	=64	=64	=64	=64	=64	=64	=64	=64	=64	=64	=64	=64	=64	=64	=64	=64	=64	=64	=64	=64	=64	=64
1BB-/;	.	.	1f\;	.	1b-\;	.	1dd\;	.	1BB-/;	-di	.	1f\;	-di	.	1b-\;	-di	.	1dd\;	-di	.	1BB-/T;<	.	1B-/;	.	1f/;	.	1BBB-/;<	1BB-/;	.	1b-\;	.	1.dd\;	.
2r	.	.	2r	.	2r	.	2r	.	2r	.	.	2r	.	.	2r	.	.	2r	.	.	2r	.	2r	.	2r	.	2r	2r	.	2r	.	.	.
==	==	==	==	==	==	==	==	==	==	==	==	==	==	==	==	==	==	==	==	==	==	==	==	==	==	==	==	==	==	==	==	==	==
*-	*-	*-	*-	*-	*-	*-	*-	*-	*-	*-	*-	*-	*-	*-	*-	*-	*-	*-	*-	*-	*-	*-	*-	*-	*-	*-	*-	*-	*-	*-	*-	*-	*-
!!!system-decoration: [(g1){(g2)}][(g3)][s7][(g4)][(g5)]s15
!!!RDF**kern: > = above
!!!RDF**kern: < = below
!!!RDF**dynam: f = for
!!!RDF**dynam: p = pia
!!!RDF**kern: | = vertical stroke
!!!ENC: Andrzej Gręziak
!!!END: 2020-11-03
!!!EED: Andrzej Borzym
!!!EEV: 2022-05-12
!!!YEC: Copyright 2022 Narodowy Instytut Fryderyka Chopina (https://polishscores.org)
!!!YEM: Licence CC BY 4.0 (https://creativecommons.org/licenses/by/4.0)
